; generated by SuperSlicer 2.4 on 2024-11-25 at 11:05:48 UTC


;
;
; 

; external perimeters extrusion width = 0.45mm
; perimeters extrusion width = 0.45mm
; infill extrusion width = 0.45mm
; solid infill extrusion width = 0.45mm
; top infill extrusion width = 0.40mm
; first layer extrusion width = 0.42mm

; object:{"name":"holder_mocap_deck","id":"holder_mocap_deck.stl id:0 copy 0","object_center":[125.000000,105.000000,0.000000],"boundingbox_center":[125.000000,105.000000,16.500000],"boundingbox_size":[38.000000,33.000000,33.000000]}
; Total objects to print: 1
M486 T1
; plater:{"center":[125.000000,105.000000,0.000000],"boundingbox_center":[125.000000,105.000000,16.500000],"boundingbox_size":[38.000000,33.000000,33.000000]}

M73 P0 R53
G10 P0 R210 ; sets the standby temperature
;TYPE:Custom
G28 W ; home all without mesh bed level
G90 ; use absolute coordinates
M83 ; extruder relative mode
G0 X60 Y-3 Z80 ; move extruder above bed, keep extruder in front for cleaning and checking
M104 S160 T0; pre-heat extruder to 160C
M140 S60 ; set bed temp
M190 S60 ; wait for bed temp
G29 ; mesh bed leveling using defined mesh grid
G0 X0 Y-3 Z0.6 ; go outside print area
M104 S215 ; wait for extruder temp
M109 S215 ; wait for extruder temp
M98 P"0:/sys/primeLine.g"; execute primeline macro
G92 E0.0M572 D0 S0.07 ; set pressure advance
M107
G21 ; set units to millimeters
G90 ; use absolute coordinates
M83 ; use relative distances for extrusion
;_TOOLCHANGE 0
M107
;LAYER_CHANGE
;Z:0.2
;HEIGHT:0.2
;BEFORE_LAYER_CHANGE
G92 E0.0
;0.2


G1 E-0.4 F1500
G1 Z0.4 F10800
;AFTER_LAYER_CHANGE
;0.2
M73 P0 R52
G1 Z0.6
M204 P1000 T1000
G1 X112.924 Y97.005
G1 Z0.2
G1 E0.4 F1500
;TYPE:Skirt
;WIDTH:0.52
G1 F1200
G1 X104.302 Y107.041 E0.49864
G1 X103.761 Y108.5 E0.05862
G1 X103.761 Y121.5 E0.48992
G1 X103.914 Y122.311 E0.03109
G1 X104.736 Y123.347 E0.04987
G1 X106 Y123.739 E0.04987
G1 X144 Y123.739 E1.43206
G1 X144.811 Y123.586 E0.03109
G1 X145.847 Y122.764 E0.04987
G1 X146.239 Y121.5 E0.04987
G1 X146.239 Y108.5 E0.48992
G1 X145.698 Y107.041 E0.05862
G1 X129.82 Y88.566 E0.91806
G1 X128.935 Y87.681 E0.04717
G1 X128.368 Y87.269 E0.0264
G1 X127.253 Y86.701 E0.04716
G1 X126.587 Y86.485 E0.02638
G1 X125.35 Y86.289 E0.0472
G1 X124.649 Y86.289 E0.02641
G1 X123.413 Y86.485 E0.04716
G1 X122.748 Y86.701 E0.02637
G1 X121.633 Y87.269 E0.04716
G1 X121.066 Y87.681 E0.0264
G1 X120.066 Y88.69 E0.05355
G1 X112.963 Y96.959 E0.4108
;WIPE_START
G1 F8640
G1 X111.462 Y98.707 E-0.38
;WIPE_END
G1 E-0.02 F1500
G1 Z0.6 F10800
; printing object holder_mocap_deck.stl id:0 copy 0
M486 S0
; acceleration to travel
G1 X122.796 Y117.447
; decel to extrusion
G1 X125 Y121.09
; end travel
M204 P800 T1500
G1 Z0.2
G1 E0.4 F1500
;TYPE:External perimeter
;WIDTH:0.42
G1 F1200
G1 X106.41 Y121.09 E0.55373
G1 X106.41 Y108.91 E0.3628
G1 X121.41 Y108.91 E0.4468
G1 X121.41 Y92.532 E0.48784
G1 X121.591 Y91.392 E0.03438
G1 X122.1 Y90.393 E0.03341
G1 X122.893 Y89.6 E0.03341
G1 X123.892 Y89.091 E0.03341
G1 X125 Y88.915 E0.03341
G1 X125.348 Y88.97 E0.0105
M73 P1 R52
G1 X126.109 Y89.091 E0.02294
G1 X127.108 Y89.6 E0.0334
G1 X127.901 Y90.393 E0.03341
G1 X128.41 Y91.392 E0.0334
G1 X128.59 Y92.532 E0.03438
G1 X128.59 Y108.91 E0.48784
G1 X143.59 Y108.91 E0.4468
G1 X143.59 Y121.09 E0.3628
G1 X125.06 Y121.09 E0.55195
;WIPE_START
M204 P1000 T1500
G1 X124.8 Y120.744 F10800
;WIPE_END
M204 P800 T800
G1 X124.8 Y120.713
;TYPE:Internal perimeter
G1 F1200
G1 X106.787 Y120.713 E0.53654
G1 X106.787 Y109.287 E0.34034
G1 X121.787 Y109.287 E0.4468
G1 X121.787 Y92.562 E0.49818
G1 X121.954 Y91.51 E0.03172
G1 X122.409 Y90.617 E0.02985
G1 X123.117 Y89.909 E0.02985
G1 X124.01 Y89.454 E0.02985
G1 X125 Y89.297 E0.02985
G1 X125.289 Y89.343 E0.00872
G1 X125.991 Y89.454 E0.02116
G1 X126.884 Y89.909 E0.02985
G1 X127.592 Y90.617 E0.02985
G1 X128.047 Y91.51 E0.02984
G1 X128.213 Y92.562 E0.03171
G1 X128.213 Y109.287 E0.49819
G1 X143.213 Y109.287 E0.4468
G1 X143.213 Y120.713 E0.34034
G1 X124.86 Y120.713 E0.54667
G1 X124.8 Y120.336 F10800
G1 F1200
G1 X107.164 Y120.336 E0.52531
G1 X107.164 Y109.664 E0.31787
G1 X122.164 Y109.664 E0.4468
G1 X122.164 Y92.592 E0.50853
G1 X122.317 Y91.628 E0.02906
G1 X122.718 Y90.842 E0.02629
G1 X123.342 Y90.218 E0.02629
G1 X124.128 Y89.817 E0.02629
G1 X125 Y89.679 E0.02629
G1 X125.23 Y89.715 E0.00694
G1 X125.873 Y89.817 E0.01938
G1 X126.659 Y90.218 E0.02629
G1 X127.283 Y90.842 E0.02629
G1 X127.684 Y91.628 E0.02628
G1 X127.836 Y92.591 E0.02905
G1 X127.836 Y109.664 E0.50854
G1 X142.836 Y109.664 E0.4468
G1 X142.836 Y120.336 E0.31787
G1 X124.86 Y120.336 E0.53544
;WIPE_START
G1 F8640
M204 P1000 T800
G1 X122.556 Y120.336 E-0.38
;WIPE_END
G1 E-0.02 F1500
G1 Z0.6 F10800
; acceleration to travel
G1 X136.998 Y115.493
; decel to extrusion
G1 X139.805 Y114.551
; end travel
M204 P800 T1500
G1 Z0.2
G1 E0.4 F1500
;TYPE:External perimeter
G1 F1200
G1 X140.195 Y114.551 E0.01159
G1 X140.572 Y114.458 E0.01158
G1 X140.917 Y114.278 E0.01159
G1 X141.207 Y114.02 E0.01157
G1 X141.429 Y113.7 E0.0116
G1 X141.566 Y113.335 E0.0116
G1 X141.613 Y112.95 E0.01157
G1 X141.566 Y112.565 E0.01157
G1 X141.429 Y112.2 E0.0116
G1 X141.207 Y111.88 E0.0116
G1 X140.917 Y111.622 E0.01157
G1 X140.572 Y111.442 E0.01159
G1 X140.195 Y111.349 E0.01158
G1 X139.805 Y111.349 E0.01159
G1 X139.428 Y111.442 E0.01158
G1 X139.083 Y111.622 E0.01159
G1 X138.793 Y111.88 E0.01157
G1 X138.571 Y112.2 E0.0116
G1 X138.434 Y112.565 E0.0116
G1 X138.387 Y112.95 E0.01157
G1 X138.434 Y113.335 E0.01157
G1 X138.571 Y113.7 E0.0116
G1 X138.793 Y114.02 E0.0116
G1 X139.083 Y114.278 E0.01157
G1 X139.428 Y114.458 E0.01159
G1 X139.747 Y114.537 E0.00979
;WIPE_START
M204 P1000 T1500
G1 X139.977 Y114.912 F10800
;WIPE_END
M204 P800 T800
G1 X139.977 Y114.928
;TYPE:Internal perimeter
G1 F1200
G1 X140.24 Y114.928 E0.00784
G1 X140.706 Y114.814 E0.0143
G1 X141.133 Y114.59 E0.01433
G1 X141.491 Y114.272 E0.01429
G1 X141.765 Y113.876 E0.01433
G1 X141.935 Y113.426 E0.01434
G1 X141.993 Y112.95 E0.01428
G1 X141.935 Y112.474 E0.01428
G1 X141.765 Y112.024 E0.01434
G1 X141.491 Y111.628 E0.01433
G1 X141.133 Y111.31 E0.01429
G1 X140.706 Y111.086 E0.01433
G1 X140.24 Y110.972 E0.0143
G1 X139.76 Y110.972 E0.01431
G1 X139.294 Y111.086 E0.0143
G1 X138.867 Y111.31 E0.01433
G1 X138.509 Y111.628 E0.01429
G1 X138.235 Y112.024 E0.01433
G1 X138.065 Y112.474 E0.01434
G1 X138.007 Y112.95 E0.01428
G1 X138.065 Y113.426 E0.01428
G1 X138.235 Y113.876 E0.01434
G1 X138.509 Y114.272 E0.01433
G1 X138.867 Y114.59 E0.01429
G1 X139.294 Y114.814 E0.01433
G1 X139.76 Y114.928 E0.0143
G1 X139.917 Y114.928 E0.00468
G1 X139.977 Y115.305 F10800
G1 F1200
G1 X140.286 Y115.305 E0.0092
G1 X140.841 Y115.169 E0.01702
G1 X141.349 Y114.903 E0.01707
G1 X141.775 Y114.524 E0.01701
G1 X142.102 Y114.053 E0.01706
G1 X142.304 Y113.516 E0.01707
G1 X142.373 Y112.95 E0.017
G1 X142.304 Y112.384 E0.017
G1 X142.102 Y111.847 E0.01707
G1 X141.775 Y111.376 E0.01706
G1 X141.349 Y110.997 E0.01701
G1 X140.841 Y110.731 E0.01707
G1 X140.286 Y110.595 E0.01702
G1 X139.714 Y110.595 E0.01703
G1 X139.159 Y110.731 E0.01702
G1 X138.651 Y110.997 E0.01707
G1 X138.225 Y111.376 E0.01701
G1 X137.898 Y111.847 E0.01706
G1 X137.696 Y112.384 E0.01707
G1 X137.627 Y112.95 E0.017
G1 X137.696 Y113.516 E0.017
G1 X137.898 Y114.053 E0.01707
G1 X138.225 Y114.524 E0.01706
G1 X138.651 Y114.903 E0.01701
G1 X139.159 Y115.169 E0.01707
G1 X139.714 Y115.305 E0.01702
G1 X139.917 Y115.305 E0.00604
;WIPE_START
G1 F8640
M204 P1000 T800
G1 X140.286 Y115.305 E-0.06084
G1 X140.841 Y115.169 E-0.09424
G1 X141.349 Y114.903 E-0.09453
G1 X141.775 Y114.524 E-0.0942
G1 X141.9 Y114.343 E-0.03619
;WIPE_END
G1 E-0.02 F1500
G1 Z0.6 F10800
; acceleration to travel
G1 X115.355 Y114.517
; decel to extrusion
G1 X110.195 Y114.551
; end travel
M204 P800 T1500
G1 Z0.2
G1 E0.4 F1500
;TYPE:External perimeter
G1 F1200
G1 X110.572 Y114.458 E0.01158
G1 X110.917 Y114.278 E0.01159
G1 X111.207 Y114.02 E0.01157
G1 X111.429 Y113.7 E0.0116
G1 X111.566 Y113.335 E0.0116
G1 X111.613 Y112.95 E0.01157
G1 X111.566 Y112.565 E0.01157
G1 X111.429 Y112.2 E0.0116
G1 X111.207 Y111.88 E0.0116
G1 X110.917 Y111.622 E0.01157
G1 X110.572 Y111.442 E0.01159
G1 X110.195 Y111.349 E0.01158
G1 X109.805 Y111.349 E0.01159
G1 X109.428 Y111.442 E0.01158
G1 X109.083 Y111.622 E0.01159
G1 X108.793 Y111.88 E0.01157
G1 X108.571 Y112.2 E0.0116
G1 X108.434 Y112.565 E0.0116
G1 X108.387 Y112.95 E0.01157
G1 X108.434 Y113.335 E0.01157
G1 X108.571 Y113.7 E0.0116
G1 X108.793 Y114.02 E0.0116
G1 X109.083 Y114.278 E0.01157
G1 X109.428 Y114.458 E0.01159
G1 X109.805 Y114.551 E0.01158
G1 X110.135 Y114.551 E0.00981
;WIPE_START
M204 P1000 T1500
G1 X110.447 Y114.861 F10800
;WIPE_END
M204 P800 T800
G1 X110.451 Y114.876
;TYPE:Internal perimeter
G1 F1200
G1 X110.706 Y114.814 E0.00783
G1 X111.133 Y114.59 E0.01433
G1 X111.491 Y114.272 E0.01429
G1 X111.765 Y113.876 E0.01433
G1 X111.935 Y113.426 E0.01434
G1 X111.993 Y112.95 E0.01428
G1 X111.935 Y112.474 E0.01428
G1 X111.765 Y112.024 E0.01434
G1 X111.491 Y111.628 E0.01433
G1 X111.133 Y111.31 E0.01429
G1 X110.706 Y111.086 E0.01433
G1 X110.24 Y110.972 E0.0143
G1 X109.76 Y110.972 E0.01431
G1 X109.294 Y111.086 E0.0143
G1 X108.867 Y111.31 E0.01433
G1 X108.509 Y111.628 E0.01429
G1 X108.235 Y112.024 E0.01433
G1 X108.065 Y112.474 E0.01434
G1 X108.007 Y112.95 E0.01428
G1 X108.065 Y113.426 E0.01428
G1 X108.235 Y113.876 E0.01434
G1 X108.509 Y114.272 E0.01433
G1 X108.867 Y114.59 E0.01429
G1 X109.294 Y114.814 E0.01433
G1 X109.76 Y114.928 E0.0143
G1 X110.24 Y114.928 E0.01431
G1 X110.393 Y114.891 E0.00468
G1 X110.541 Y115.242 F10800
G1 F1200
G1 X110.841 Y115.169 E0.00919
G1 X111.349 Y114.903 E0.01707
G1 X111.775 Y114.524 E0.01701
G1 X112.102 Y114.053 E0.01706
G1 X112.304 Y113.516 E0.01707
G1 X112.373 Y112.95 E0.017
G1 X112.304 Y112.384 E0.017
G1 X112.102 Y111.847 E0.01707
G1 X111.775 Y111.376 E0.01706
G1 X111.349 Y110.997 E0.01701
G1 X110.841 Y110.731 E0.01707
G1 X110.286 Y110.595 E0.01702
G1 X109.714 Y110.595 E0.01703
G1 X109.159 Y110.731 E0.01702
G1 X108.651 Y110.997 E0.01707
G1 X108.225 Y111.376 E0.01701
G1 X107.898 Y111.847 E0.01706
G1 X107.696 Y112.384 E0.01707
G1 X107.627 Y112.95 E0.017
G1 X107.696 Y113.516 E0.017
G1 X107.898 Y114.053 E0.01707
G1 X108.225 Y114.524 E0.01706
G1 X108.651 Y114.903 E0.01701
G1 X109.159 Y115.169 E0.01707
G1 X109.714 Y115.305 E0.01702
G1 X110.286 Y115.305 E0.01703
G1 X110.483 Y115.257 E0.00604
;WIPE_START
G1 F8640
M204 P1000 T800
G1 X110.841 Y115.169 E-0.06079
G1 X111.349 Y114.903 E-0.09453
G1 X111.775 Y114.524 E-0.0942
G1 X112.102 Y114.053 E-0.09447
G1 X112.179 Y113.849 E-0.036
;WIPE_END
G1 E-0.02 F1500
G1 Z0.6 F10800
; acceleration to travel
G1 X122.913 Y98.208
; decel to extrusion
G1 X125 Y95.167
; end travel
M204 P800 T1500
G1 Z0.2
G1 E0.4 F1500
;TYPE:External perimeter
G1 F1200
G1 X125.515 Y95.086 E0.01554
G1 X125.98 Y94.849 E0.01554
G1 X126.349 Y94.48 E0.01553
G1 X126.586 Y94.016 E0.01553
G1 X126.668 Y93.5 E0.01556
G1 X126.586 Y92.984 E0.01556
G1 X126.349 Y92.52 E0.01553
G1 X126.008 Y92.179 E0.01435
G1 X125.521 Y91.915 E0.01651
G1 X125 Y91.832 E0.01571
G1 X124.484 Y91.914 E0.01556
G1 X124.02 Y92.151 E0.01553
G1 X123.651 Y92.52 E0.01553
G1 X123.414 Y92.985 E0.01554
G1 X123.333 Y93.5 E0.01554
G1 X123.414 Y94.015 E0.01554
G1 X123.651 Y94.48 E0.01554
G1 X124.02 Y94.849 E0.01553
G1 X124.485 Y95.086 E0.01554
G1 X124.941 Y95.158 E0.01375
;WIPE_START
M204 P1000 T1500
G1 X125.218 Y95.503 F10800
;WIPE_END
M204 P800 T800
G1 X125.22 Y95.514
;TYPE:Internal perimeter
G1 F1200
G1 X125.633 Y95.449 E0.01247
G1 X126.205 Y95.158 E0.0191
G1 X126.658 Y94.705 E0.01909
G1 X126.949 Y94.134 E0.01907
G1 X127.05 Y93.5 E0.01913
G1 X126.949 Y92.866 E0.01913
G1 X126.658 Y92.295 E0.01907
G1 X126.236 Y91.874 E0.01776
G1 X125.644 Y91.553 E0.02006
G1 X125 Y91.45 E0.01943
G1 X124.366 Y91.551 E0.01913
G1 X123.795 Y91.842 E0.01907
G1 X123.342 Y92.295 E0.01909
G1 X123.051 Y92.867 E0.01911
G1 X122.951 Y93.5 E0.01909
G1 X123.051 Y94.133 E0.01909
G1 X123.342 Y94.705 E0.01911
G1 X123.795 Y95.158 E0.01909
G1 X124.367 Y95.449 E0.0191
G1 X125 Y95.549 E0.01909
G1 X125.16 Y95.524 E0.00483
G1 X125.278 Y95.887 F10800
G1 F1200
G1 X125.751 Y95.812 E0.01426
G1 X126.429 Y95.466 E0.02267
G1 X126.966 Y94.929 E0.02264
G1 X127.311 Y94.252 E0.02262
G1 X127.432 Y93.5 E0.0227
G1 X127.311 Y92.748 E0.0227
G1 X126.966 Y92.071 E0.02262
G1 X126.464 Y91.568 E0.02117
G1 X125.767 Y91.191 E0.0236
G1 X125 Y91.068 E0.02314
G1 X124.248 Y91.189 E0.0227
G1 X123.571 Y91.534 E0.02262
G1 X123.034 Y92.071 E0.02264
G1 X122.688 Y92.749 E0.02267
G1 X122.569 Y93.5 E0.02265
G1 X122.688 Y94.251 E0.02265
G1 X123.034 Y94.929 E0.02267
G1 X123.571 Y95.466 E0.02264
G1 X124.249 Y95.812 E0.02267
G1 X125 Y95.931 E0.02265
G1 X125.219 Y95.896 E0.00661
;WIPE_START
G1 F8640
M204 P1000 T800
G1 X125.751 Y95.812 E-0.08883
G1 X126.429 Y95.466 E-0.12551
G1 X126.966 Y94.929 E-0.12535
G1 X127.077 Y94.711 E-0.04031
;WIPE_END
G1 E-0.02 F1500
G1 Z0.6 F10800
; acceleration to travel
G1 X125.338 Y103.465
; decel to extrusion
G1 X125 Y105.167
; end travel
M204 P800 T1500
G1 Z0.2
G1 E0.4 F1500
;TYPE:External perimeter
G1 F1200
G1 X125.515 Y105.086 E0.01554
G1 X125.98 Y104.849 E0.01554
G1 X126.349 Y104.48 E0.01553
G1 X126.586 Y104.016 E0.01553
G1 X126.668 Y103.5 E0.01556
G1 X126.586 Y102.984 E0.01556
G1 X126.349 Y102.52 E0.01553
G1 X125.98 Y102.151 E0.01553
G1 X125.516 Y101.914 E0.01553
G1 X125 Y101.832 E0.01556
G1 X124.484 Y101.914 E0.01556
G1 X124.02 Y102.151 E0.01553
G1 X123.651 Y102.52 E0.01553
G1 X123.414 Y102.985 E0.01554
G1 X123.333 Y103.5 E0.01554
G1 X123.414 Y104.015 E0.01554
G1 X123.651 Y104.48 E0.01554
G1 X124.02 Y104.849 E0.01553
G1 X124.485 Y105.086 E0.01554
G1 X124.941 Y105.158 E0.01375
;WIPE_START
M204 P1000 T1500
G1 X125.218 Y105.503 F10800
;WIPE_END
M204 P800 T800
G1 X125.22 Y105.514
;TYPE:Internal perimeter
G1 F1200
G1 X125.633 Y105.449 E0.01247
G1 X126.205 Y105.158 E0.01911
G1 X126.658 Y104.705 E0.01909
G1 X126.949 Y104.134 E0.01907
G1 X127.05 Y103.5 E0.01913
G1 X126.949 Y102.866 E0.01913
G1 X126.658 Y102.295 E0.01907
G1 X126.205 Y101.842 E0.01909
G1 X125.634 Y101.551 E0.01907
G1 X125 Y101.45 E0.01913
G1 X124.366 Y101.551 E0.01913
G1 X123.795 Y101.842 E0.01907
G1 X123.342 Y102.295 E0.01909
G1 X123.051 Y102.867 E0.0191
G1 X122.951 Y103.5 E0.01909
G1 X123.051 Y104.133 E0.01909
G1 X123.342 Y104.705 E0.0191
G1 X123.795 Y105.158 E0.01909
G1 X124.367 Y105.449 E0.01911
G1 X125 Y105.549 E0.01909
G1 X125.16 Y105.524 E0.00483
G1 X125.278 Y105.887 F10800
G1 F1200
G1 X125.751 Y105.812 E0.01426
G1 X126.429 Y105.466 E0.02267
G1 X126.966 Y104.929 E0.02264
G1 X127.311 Y104.252 E0.02262
G1 X127.432 Y103.5 E0.0227
G1 X127.311 Y102.748 E0.0227
G1 X126.966 Y102.071 E0.02262
G1 X126.429 Y101.534 E0.02264
G1 X125.752 Y101.189 E0.02262
G1 X125 Y101.068 E0.0227
G1 X124.248 Y101.189 E0.0227
G1 X123.571 Y101.534 E0.02262
G1 X123.034 Y102.071 E0.02264
G1 X122.688 Y102.749 E0.02267
G1 X122.569 Y103.5 E0.02265
G1 X122.688 Y104.251 E0.02265
G1 X123.034 Y104.929 E0.02267
G1 X123.571 Y105.466 E0.02264
G1 X124.249 Y105.812 E0.02267
G1 X125 Y105.931 E0.02265
G1 X125.219 Y105.896 E0.00661
;WIPE_START
G1 F8640
M204 P1000 T800
G1 X125.751 Y105.812 E-0.08883
G1 X126.429 Y105.466 E-0.12551
G1 X126.966 Y104.929 E-0.12535
G1 X127.077 Y104.711 E-0.04031
;WIPE_END
G1 E-0.02 F1500
G1 Z0.6 F10800
; acceleration to travel
G1 X127.369 Y94.001
; decel to extrusion
G1 X127.44 Y91.398
; end travel
G1 Z0.2
G1 E0.4 F1500
;TYPE:Solid infill
;WIDTH:0.422159
G1 F1200
G1 X126.474 Y90.432 E0.04092
G1 X125.787 Y90.082 E0.02308
G1 X125.553 Y90.045 E0.00707
G1 X127.456 Y91.947 E0.08054
G1 X127.555 Y92.58 E0.01919
G1 X127.514 Y92.539 E0.00176
G1 X127.192 Y91.907 E0.02123
G1 X126.63 Y91.346 E0.02378
G1 X125.954 Y90.979 E0.02301
G1 X124.942 Y89.967 E0.04288
G1 X124.481 Y90.04 E0.01395
G1 X125.275 Y90.833 E0.03361
G1 X125 Y90.789 E0.00834
G1 X124.74 Y90.831 E0.0079
G1 X124.066 Y90.158 E0.02851
G1 X123.713 Y90.338 E0.01187
G1 X124.28 Y90.905 E0.02401
G1 X124.161 Y90.924 E0.0036
G1 X123.899 Y91.057 E0.0088
G1 X123.395 Y90.553 E0.02134
G1 X123.129 Y90.82 E0.01129
G1 X123.546 Y91.237 E0.01767
G1 X123.407 Y91.308 E0.00467
