; generated by SuperSlicer 2.4 on 2024-11-25 at 15:03:18 UTC


;
;
; 

; external perimeters extrusion width = 0.45mm
; perimeters extrusion width = 0.45mm
; infill extrusion width = 0.45mm
; solid infill extrusion width = 0.45mm
; top infill extrusion width = 0.40mm
; support material extrusion width = 0.35mm
; first layer extrusion width = 0.42mm

; object:{"name":"holder_mocap_deck_V2","id":"holder_mocap_deck_V2.stl id:0 copy 0","object_center":[125.000000,105.000000,0.000000],"boundingbox_center":[125.000000,105.000000,16.500000],"boundingbox_size":[38.000000,32.000000,33.000000]}
; Total objects to print: 1
M486 T1
; plater:{"center":[125.000000,105.000000,0.000000],"boundingbox_center":[125.000000,105.000000,16.500000],"boundingbox_size":[38.000000,32.000000,33.000000]}

M73 P0 R53
G10 P0 R210 ; sets the standby temperature
;TYPE:Custom
G28 W ; home all without mesh bed level
G90 ; use absolute coordinates
M83 ; extruder relative mode
G0 X60 Y-3 Z80 ; move extruder above bed, keep extruder in front for cleaning and checking
M104 S160 T0; pre-heat extruder to 160C
M140 S60 ; set bed temp
M190 S60 ; wait for bed temp
G29 ; mesh bed leveling using defined mesh grid
G0 X0 Y-3 Z0.6 ; go outside print area
M104 S215 ; wait for extruder temp
M109 S215 ; wait for extruder temp
M98 P"0:/sys/primeLine.g"; execute primeline macro
G92 E0.0M572 D0 S0.07 ; set pressure advance
M107
G21 ; set units to millimeters
G90 ; use absolute coordinates
M83 ; use relative distances for extrusion
;_TOOLCHANGE 0
M107
;LAYER_CHANGE
;Z:0.2
;HEIGHT:0.2
;BEFORE_LAYER_CHANGE
G92 E0.0
;0.2


G1 E-0.4 F1500
G1 Z0.4 F10800
;AFTER_LAYER_CHANGE
;0.2
G1 Z0.6
M204 P1000 T1000
G1 X115.654 Y85.046
G1 Z0.2
G1 E0.4 F1500
;TYPE:Skirt
;WIDTH:0.52
G1 F1200
G1 X104.023 Y106.95 E0.93464
G1 X103.761 Y108 E0.04077
G1 X103.761 Y121 E0.48992
G1 X103.914 Y121.811 E0.03109
G1 X104.736 Y122.847 E0.04987
G1 X106 Y123.239 E0.04987
G1 X144 Y123.239 E1.43206
G1 X144.811 Y123.086 E0.03109
G1 X145.847 Y122.264 E0.04987
G1 X146.239 Y121 E0.04987
G1 X146.239 Y108 E0.48992
G1 X145.977 Y106.95 E0.04077
G1 X134.346 Y85.046 E0.93464
G1 X133.633 Y84.248 E0.04032
G1 X132.369 Y83.857 E0.04987
G1 X117.631 Y83.857 E0.55542
G1 X116.592 Y84.113 E0.04032
G1 X115.696 Y85.003 E0.0476
;WIPE_START
G1 F8640
G1 X114.614 Y87.038 E-0.38
;WIPE_END
G1 E-0.02 F1500
G1 Z0.6 F10800
; printing object holder_mocap_deck_V2.stl id:0 copy 0
M486 S0
; acceleration to travel
G1 X117.041 Y86.28
; decel to extrusion
G1 X117.631 Y86.096
; end travel
G1 Z0.2
G1 E0.4 F1500
;TYPE:Support material
;WIDTH:0.42
G1 F1200
G1 X132.369 Y86.096 E0.439
G1 X132.369 Y107.576 E0.63984
G1 X117.631 Y107.576 E0.439
G1 X117.631 Y86.156 E0.63806
; acceleration to travel
G1 X126.075 Y98.952 F10800
; decel to extrusion
G1 X131.704 Y107.482
; end travel
G1 F1200
M73 P1 R53
G1 X131.704 Y86.352 E0.6294
G1 X131.285 Y86.352 E0.01248
G1 X131.285 Y107.32 E0.62457
G1 X130.866 Y107.32 E0.01248
G1 X130.866 Y86.352 E0.62457
G1 X130.447 Y86.352 E0.01248
G1 X130.447 Y107.32 E0.62457
G1 X130.028 Y107.32 E0.01248
G1 X130.028 Y86.352 E0.62457
G1 X129.609 Y86.352 E0.01248
G1 X129.609 Y107.32 E0.62457
G1 X129.19 Y107.32 E0.01248
G1 X129.19 Y86.352 E0.62457
G1 X128.771 Y86.352 E0.01248
G1 X128.771 Y107.32 E0.62457
G1 X128.352 Y107.32 E0.01248
G1 X128.352 Y86.352 E0.62457
G1 X127.933 Y86.352 E0.01248
G1 X127.933 Y107.32 E0.62457
G1 X127.514 Y107.32 E0.01248
G1 X127.514 Y86.352 E0.62457
G1 X127.095 Y86.352 E0.01248
G1 X127.095 Y107.32 E0.62457
G1 X126.676 Y107.32 E0.01248
G1 X126.676 Y86.352 E0.62457
G1 X126.257 Y86.352 E0.01248
G1 X126.257 Y107.32 E0.62457
G1 X125.838 Y107.32 E0.01248
M73 P1 R52
G1 X125.838 Y86.352 E0.62457
G1 X125.419 Y86.352 E0.01248
G1 X125.419 Y107.32 E0.62457
G1 X125 Y107.32 E0.01248
G1 X125 Y86.352 E0.62457
G1 X124.581 Y86.352 E0.01248
G1 X124.581 Y107.32 E0.62457
G1 X124.162 Y107.32 E0.01248
G1 X124.162 Y86.352 E0.62457
G1 X123.743 Y86.352 E0.01248
G1 X123.743 Y107.32 E0.62457
G1 X123.324 Y107.32 E0.01248
G1 X123.324 Y86.352 E0.62457
G1 X122.905 Y86.352 E0.01248
G1 X122.905 Y107.32 E0.62457
G1 X122.486 Y107.32 E0.01248
G1 X122.486 Y86.352 E0.62457
G1 X122.067 Y86.352 E0.01248
G1 X122.067 Y107.32 E0.62457
G1 X121.648 Y107.32 E0.01248
G1 X121.648 Y86.352 E0.62457
G1 X121.229 Y86.352 E0.01248
G1 X121.229 Y107.32 E0.62457
G1 X120.81 Y107.32 E0.01248
G1 X120.81 Y86.352 E0.62457
G1 X120.391 Y86.352 E0.01248
G1 X120.391 Y107.32 E0.62457
G1 X119.972 Y107.32 E0.01248
G1 X119.972 Y86.352 E0.62457
G1 X119.553 Y86.352 E0.01248
G1 X119.553 Y107.32 E0.62457
G1 X119.134 Y107.32 E0.01248
G1 X119.134 Y86.352 E0.62457
G1 X118.715 Y86.352 E0.01248
M73 P2 R52
G1 X118.715 Y107.32 E0.62457
G1 X118.296 Y107.32 E0.01248
G1 X118.296 Y86.19 E0.6294
;WIPE_START
G1 F8640
G1 X118.296 Y88.494 E-0.38
;WIPE_END
G1 E-0.02 F1500
G1 Z0.6 F10800
; acceleration to travel
G1 X123.909 Y115.366
; decel to extrusion
G1 X125 Y120.59
; end travel
M204 P800 T1500
G1 Z0.2
G1 E0.4 F1500
;TYPE:External perimeter
G1 F1200
G1 X106.41 Y120.59 E0.55373
G1 X106.41 Y108.41 E0.3628
G1 X143.59 Y108.41 E1.10747
G1 X143.59 Y120.59 E0.3628
G1 X125.06 Y120.59 E0.55195
;WIPE_START
M204 P1000 T1500
G1 X124.8 Y120.244 F10800
;WIPE_END
M204 P800 T800
G1 X124.8 Y120.213
;TYPE:Internal perimeter
G1 F1200
G1 X106.787 Y120.213 E0.53654
G1 X106.787 Y108.787 E0.34034
G1 X143.213 Y108.787 E1.085
G1 X143.213 Y120.213 E0.34034
G1 X124.86 Y120.213 E0.54667
G1 X124.8 Y119.836 F10800
G1 F1200
G1 X107.164 Y119.836 E0.52531
G1 X107.164 Y109.164 E0.31787
G1 X142.836 Y109.164 E1.06254
G1 X142.836 Y119.836 E0.31787
G1 X124.86 Y119.836 E0.53544
;WIPE_START
G1 F8640
M204 P1000 T800
G1 X122.556 Y119.836 E-0.38
;WIPE_END
G1 E-0.02 F1500
G1 Z0.6 F10800
; acceleration to travel
G1 X112.207 Y114.993
; decel to extrusion
G1 X110.195 Y114.051
; end travel
M204 P800 T1500
G1 Z0.2
G1 E0.4 F1500
;TYPE:External perimeter
G1 F1200
G1 X110.572 Y113.958 E0.01158
G1 X110.917 Y113.778 E0.01159
G1 X111.207 Y113.52 E0.01157
G1 X111.429 Y113.2 E0.0116
G1 X111.566 Y112.835 E0.0116
G1 X111.613 Y112.45 E0.01157
G1 X111.566 Y112.065 E0.01157
G1 X111.429 Y111.7 E0.0116
G1 X111.207 Y111.38 E0.0116
G1 X110.917 Y111.122 E0.01157
G1 X110.572 Y110.942 E0.01159
G1 X110.195 Y110.849 E0.01158
G1 X109.805 Y110.849 E0.01159
G1 X109.428 Y110.942 E0.01158
G1 X109.083 Y111.122 E0.01159
G1 X108.793 Y111.38 E0.01157
G1 X108.571 Y111.7 E0.0116
G1 X108.434 Y112.065 E0.0116
G1 X108.387 Y112.45 E0.01157
G1 X108.434 Y112.835 E0.01157
G1 X108.571 Y113.2 E0.0116
G1 X108.793 Y113.52 E0.0116
G1 X109.083 Y113.778 E0.01157
G1 X109.428 Y113.958 E0.01159
G1 X109.805 Y114.051 E0.01158
G1 X110.135 Y114.051 E0.00981
;WIPE_START
M204 P1000 T1500
G1 X110.447 Y114.361 F10800
;WIPE_END
M204 P800 T800
G1 X110.451 Y114.376
;TYPE:Internal perimeter
G1 F1200
G1 X110.706 Y114.314 E0.00783
G1 X111.133 Y114.09 E0.01433
G1 X111.491 Y113.772 E0.01429
G1 X111.765 Y113.376 E0.01433
G1 X111.935 Y112.926 E0.01434
G1 X111.993 Y112.45 E0.01428
G1 X111.935 Y111.974 E0.01428
G1 X111.765 Y111.524 E0.01434
G1 X111.491 Y111.128 E0.01433
G1 X111.133 Y110.81 E0.01429
G1 X110.706 Y110.586 E0.01433
G1 X110.24 Y110.472 E0.0143
G1 X109.76 Y110.472 E0.01431
G1 X109.294 Y110.586 E0.0143
G1 X108.867 Y110.81 E0.01433
G1 X108.509 Y111.128 E0.01429
G1 X108.235 Y111.524 E0.01433
G1 X108.065 Y111.974 E0.01434
G1 X108.007 Y112.45 E0.01428
G1 X108.065 Y112.926 E0.01428
G1 X108.235 Y113.376 E0.01434
G1 X108.509 Y113.772 E0.01433
G1 X108.867 Y114.09 E0.01429
G1 X109.294 Y114.314 E0.01433
G1 X109.76 Y114.428 E0.0143
G1 X110.24 Y114.428 E0.01431
G1 X110.393 Y114.391 E0.00468
G1 X110.541 Y114.742 F10800
G1 F1200
G1 X110.841 Y114.669 E0.00919
G1 X111.349 Y114.403 E0.01707
G1 X111.775 Y114.024 E0.01701
G1 X112.102 Y113.553 E0.01706
G1 X112.304 Y113.016 E0.01707
G1 X112.373 Y112.45 E0.017
G1 X112.304 Y111.884 E0.017
G1 X112.102 Y111.347 E0.01707
G1 X111.775 Y110.876 E0.01706
G1 X111.349 Y110.497 E0.01701
G1 X110.841 Y110.231 E0.01707
G1 X110.286 Y110.095 E0.01702
G1 X109.714 Y110.095 E0.01703
G1 X109.159 Y110.231 E0.01702
G1 X108.651 Y110.497 E0.01707
G1 X108.225 Y110.876 E0.01701
G1 X107.898 Y111.347 E0.01706
G1 X107.696 Y111.884 E0.01707
G1 X107.627 Y112.45 E0.017
G1 X107.696 Y113.016 E0.017
G1 X107.898 Y113.553 E0.01707
G1 X108.225 Y114.024 E0.01706
G1 X108.651 Y114.403 E0.01701
G1 X109.159 Y114.669 E0.01707
G1 X109.714 Y114.805 E0.01702
G1 X110.286 Y114.805 E0.01703
G1 X110.483 Y114.757 E0.00604
;WIPE_START
G1 F8640
M204 P1000 T800
G1 X110.841 Y114.669 E-0.06079
G1 X111.349 Y114.403 E-0.09453
G1 X111.775 Y114.024 E-0.0942
G1 X112.102 Y113.553 E-0.09448
G1 X112.179 Y113.349 E-0.036
;WIPE_END
G1 E-0.02 F1500
G1 Z0.6 F10800
; acceleration to travel
G1 X135.309 Y113.937
; decel to extrusion
G1 X139.805 Y114.051
; end travel
M204 P800 T1500
G1 Z0.2
G1 E0.4 F1500
;TYPE:External perimeter
G1 F1200
G1 X140.195 Y114.051 E0.01159
G1 X140.572 Y113.958 E0.01158
G1 X140.917 Y113.778 E0.01159
G1 X141.207 Y113.52 E0.01157
G1 X141.429 Y113.2 E0.0116
G1 X141.566 Y112.835 E0.0116
G1 X141.613 Y112.45 E0.01157
G1 X141.566 Y112.065 E0.01157
G1 X141.429 Y111.7 E0.0116
G1 X141.207 Y111.38 E0.0116
G1 X140.917 Y111.122 E0.01157
G1 X140.572 Y110.942 E0.01159
G1 X140.195 Y110.849 E0.01158
G1 X139.805 Y110.849 E0.01159
G1 X139.428 Y110.942 E0.01158
G1 X139.083 Y111.122 E0.01159
G1 X138.793 Y111.38 E0.01157
G1 X138.571 Y111.7 E0.0116
G1 X138.434 Y112.065 E0.0116
G1 X138.387 Y112.45 E0.01157
G1 X138.434 Y112.835 E0.01157
G1 X138.571 Y113.2 E0.0116
G1 X138.793 Y113.52 E0.0116
G1 X139.083 Y113.778 E0.01157
G1 X139.428 Y113.958 E0.01159
G1 X139.747 Y114.037 E0.00979
;WIPE_START
M204 P1000 T1500
G1 X139.977 Y114.412 F10800
;WIPE_END
M204 P800 T800
G1 X139.977 Y114.428
;TYPE:Internal perimeter
G1 F1200
G1 X140.24 Y114.428 E0.00784
G1 X140.706 Y114.314 E0.0143
G1 X141.133 Y114.09 E0.01433
G1 X141.491 Y113.772 E0.01429
G1 X141.765 Y113.376 E0.01433
G1 X141.935 Y112.926 E0.01434
G1 X141.993 Y112.45 E0.01428
G1 X141.935 Y111.974 E0.01428
G1 X141.765 Y111.524 E0.01434
G1 X141.491 Y111.128 E0.01433
G1 X141.133 Y110.81 E0.01429
G1 X140.706 Y110.586 E0.01433
G1 X140.24 Y110.472 E0.0143
G1 X139.76 Y110.472 E0.01431
G1 X139.294 Y110.586 E0.0143
G1 X138.867 Y110.81 E0.01433
G1 X138.509 Y111.128 E0.01429
G1 X138.235 Y111.524 E0.01433
G1 X138.065 Y111.974 E0.01434
G1 X138.007 Y112.45 E0.01428
G1 X138.065 Y112.926 E0.01428
G1 X138.235 Y113.376 E0.01434
G1 X138.509 Y113.772 E0.01433
G1 X138.867 Y114.09 E0.01429
G1 X139.294 Y114.314 E0.01433
G1 X139.76 Y114.428 E0.0143
G1 X139.917 Y114.428 E0.00468
G1 X139.977 Y114.805 F10800
G1 F1200
G1 X140.286 Y114.805 E0.0092
G1 X140.841 Y114.669 E0.01702
G1 X141.349 Y114.403 E0.01707
G1 X141.775 Y114.024 E0.01701
G1 X142.102 Y113.553 E0.01706
G1 X142.304 Y113.016 E0.01707
G1 X142.373 Y112.45 E0.017
G1 X142.304 Y111.884 E0.017
G1 X142.102 Y111.347 E0.01707
G1 X141.775 Y110.876 E0.01706
G1 X141.349 Y110.497 E0.01701
G1 X140.841 Y110.231 E0.01707
G1 X140.286 Y110.095 E0.01702
G1 X139.714 Y110.095 E0.01703
G1 X139.159 Y110.231 E0.01702
G1 X138.651 Y110.497 E0.01707
G1 X138.225 Y110.876 E0.01701
G1 X137.898 Y111.347 E0.01706
G1 X137.696 Y111.884 E0.01707
G1 X137.627 Y112.45 E0.017
G1 X137.696 Y113.016 E0.017
G1 X137.898 Y113.553 E0.01707
G1 X138.225 Y114.024 E0.01706
G1 X138.651 Y114.403 E0.01701
G1 X139.159 Y114.669 E0.01707
G1 X139.714 Y114.805 E0.01702
G1 X139.917 Y114.805 E0.00604
;WIPE_START
G1 F8640
M204 P1000 T800
G1 X140.286 Y114.805 E-0.06084
G1 X140.841 Y114.669 E-0.09424
G1 X141.349 Y114.403 E-0.09453
G1 X141.775 Y114.024 E-0.0942
G1 X141.9 Y113.843 E-0.03619
;WIPE_END
G1 E-0.02 F1500
G1 Z0.6 F10800
; acceleration to travel
G1 X142.562 Y110.783
; decel to extrusion
G1 X142.723 Y110.04
; end travel
G1 Z0.2
G1 E0.4 F1500
;TYPE:Solid infill
;WIDTH:0.421123
G1 F1200
G1 X142.123 Y109.439 E0.02535
G1 X141.589 Y109.439 E0.01593
G1 X142.561 Y110.411 E0.04102
G1 X142.561 Y110.944 E0.01593
G1 X141.056 Y109.439 E0.06355
G1 X140.523 Y109.439 E0.01593
G1 X142.723 Y111.639 E0.09292
;WIPE_START
G1 F8640
G1 X141.094 Y110.01 E-0.38
;WIPE_END
G1 E-0.02 F1500
G1 Z0.6 F10800
G1 X140.607 Y110.057
G1 Z0.2
G1 E0.4 F1500
G1 F1200
G1 X139.99 Y109.439 E0.0261
G1 X139.456 Y109.439 E0.01593
G1 X139.836 Y109.82 E0.01606
G1 X139.681 Y109.82 E0.00465
G1 X139.378 Y109.894 E0.00933
G1 X138.923 Y109.439 E0.0192
G1 X138.39 Y109.439 E0.01593
G1 X138.97 Y110.02 E0.0245
G1 X138.62 Y110.203 E0.0118
G1 X137.856 Y109.439 E0.03224
G1 X137.323 Y109.439 E0.01593
G1 X138.313 Y110.429 E0.04181
G1 X138.031 Y110.68 E0.01128
G1 X136.79 Y109.439 E0.05241
G1 X136.257 Y109.439 E0.01593
G1 X137.809 Y110.992 E0.06558
G1 X137.653 Y111.218 E0.00822
G1 X137.611 Y111.328 E0.00349
G1 X135.723 Y109.439 E0.07975
G1 X135.19 Y109.439 E0.01593
G1 X137.466 Y111.715 E0.09611
G1 X137.427 Y111.817 E0.00327
G1 X137.384 Y112.167 E0.01052
G1 X134.657 Y109.439 E0.11521
G1 X134.124 Y109.439 E0.01593
G1 X137.566 Y112.882 E0.1454
;WIPE_START
G1 F8640
G1 X135.937 Y111.253 E-0.38
;WIPE_END
G1 E-0.02 F1500
G1 Z0.6 F10800
; acceleration to travel
G1 X141.056 Y112.939
; decel to extrusion
G1 X142.299 Y113.349
; end travel
G1 Z0.2
G1 E0.4 F1500
G1 F1200
G1 X142.561 Y113.61 E0.01103
G1 X142.561 Y114.144 E0.01593
G1 X142.246 Y113.829 E0.0133
G1 X142.027 Y114.143 E0.01145
G1 X142.561 Y114.677 E0.02253
G1 X142.561 Y115.21 E0.01593
G1 X141.758 Y114.407 E0.0339
G1 X141.506 Y114.631 E0.01006
G1 X141.468 Y114.651 E0.00128
G1 X142.561 Y115.743 E0.04613
G1 X142.561 Y116.277 E0.01593
G1 X141.118 Y114.834 E0.06092
G1 X140.939 Y114.928 E0.00605
G1 X140.73 Y114.979 E0.00642
G1 X142.561 Y116.81 E0.07731
G1 X142.561 Y117.343 E0.01593
G1 X140.298 Y115.08 E0.09557
G1 X139.765 Y115.08 E0.01593
G1 X142.561 Y117.876 E0.1181
G1 X142.561 Y118.41 E0.01593
G1 X139.085 Y114.934 E0.1468
G1 X139.061 Y114.928 E0.00073
G1 X138.494 Y114.631 E0.01912
G1 X138.017 Y114.208 E0.01905
G1 X137.653 Y113.682 E0.01911
G1 X137.544 Y113.393 E0.00921
G1 X133.59 Y109.439 E0.16699
G1 X133.057 Y109.439 E0.01593
G1 X142.561 Y118.943 E0.4014
G1 X142.561 Y119.476 E0.01593
G1 X132.524 Y109.439 E0.42393
G1 X131.99 Y109.439 E0.01593
G1 X142.112 Y119.561 E0.42749
G1 X141.578 Y119.561 E0.01593
G1 X131.457 Y109.439 E0.42749
G1 X130.924 Y109.439 E0.01593
G1 X141.045 Y119.561 E0.42749
G1 X140.512 Y119.561 E0.01593
G1 X130.391 Y109.439 E0.42749
G1 X129.857 Y109.439 E0.01593
M73 P3 R52
G1 X139.979 Y119.561 E0.42749
G1 X139.445 Y119.561 E0.01593
G1 X129.324 Y109.439 E0.42749
G1 X128.791 Y109.439 E0.01593
G1 X138.912 Y119.561 E0.42749
G1 X138.379 Y119.561 E0.01593
G1 X128.258 Y109.439 E0.42749
G1 X127.724 Y109.439 E0.01593
G1 X137.846 Y119.561 E0.42749
G1 X137.312 Y119.561 E0.01593
G1 X127.191 Y109.439 E0.42749
G1 X126.658 Y109.439 E0.01593
G1 X136.779 Y119.561 E0.42749
G1 X136.246 Y119.561 E0.01593
G1 X126.125 Y109.439 E0.42749
G1 X125.591 Y109.439 E0.01593
G1 X135.712 Y119.561 E0.42749
G1 X135.179 Y119.561 E0.01593
G1 X125.058 Y109.439 E0.42749
G1 X124.525 Y109.439 E0.01593
G1 X134.646 Y119.561 E0.42749
G1 X134.113 Y119.561 E0.01593
G1 X123.991 Y109.439 E0.42749
G1 X123.458 Y109.439 E0.01593
M73 P3 R51
G1 X133.579 Y119.561 E0.42749
G1 X133.046 Y119.561 E0.01593
G1 X122.925 Y109.439 E0.42749
G1 X122.392 Y109.439 E0.01593
G1 X132.513 Y119.561 E0.42749
G1 X131.98 Y119.561 E0.01593
G1 X121.858 Y109.439 E0.42749
G1 X121.325 Y109.439 E0.01593
G1 X131.446 Y119.561 E0.42749
G1 X130.913 Y119.561 E0.01593
G1 X120.792 Y109.439 E0.42749
G1 X120.259 Y109.439 E0.01593
G1 X130.38 Y119.561 E0.42749
G1 X129.846 Y119.561 E0.01593
G1 X119.725 Y109.439 E0.42749
G1 X119.192 Y109.439 E0.01593
G1 X129.313 Y119.561 E0.42749
G1 X128.78 Y119.561 E0.01593
G1 X118.659 Y109.439 E0.42749
G1 X118.125 Y109.439 E0.01593
G1 X128.247 Y119.561 E0.42749
G1 X127.713 Y119.561 E0.01593
G1 X117.592 Y109.439 E0.42749
G1 X117.059 Y109.439 E0.01593
G1 X127.18 Y119.561 E0.42749
G1 X126.647 Y119.561 E0.01593
G1 X116.526 Y109.439 E0.42749
G1 X115.992 Y109.439 E0.01593
G1 X126.114 Y119.561 E0.42749
G1 X125.58 Y119.561 E0.01593
G1 X115.459 Y109.439 E0.42749
G1 X114.926 Y109.439 E0.01593
G1 X125.047 Y119.561 E0.42749
G1 X124.514 Y119.561 E0.01593
