; generated by PrusaSlicer 2.7.4 on 2024-11-22 at 14:13:58 UTC

; 

; external perimeters extrusion width = 0.45mm
; perimeters extrusion width = 0.45mm
; infill extrusion width = 0.45mm
; solid infill extrusion width = 0.45mm
; top infill extrusion width = 0.40mm
; support material extrusion width = 0.40mm
; first layer extrusion width = 0.40mm

; external perimeters extrusion width = 0.45mm
; perimeters extrusion width = 0.45mm
; infill extrusion width = 0.45mm
; solid infill extrusion width = 0.45mm
; top infill extrusion width = 0.40mm
; support material extrusion width = 0.40mm
; first layer extrusion width = 0.40mm

M190 S50 ; set bed temperature and wait for it to be reached
M104 S220 ; set temperature
;TYPE:Custom
G28 ; home all axes
G1 Z5 F5000 ; lift nozzle
M109 S220 ; set temperature and wait for it to be reached
G21 ; set units to millimeters
G90 ; use absolute coordinates
M82 ; use absolute distances for extrusion
G92 E0
; Filament gcode
M107
;LAYER_CHANGE
;Z:0.9
;HEIGHT:0.9
G1 E-1.6 F2400
G1 Z1.4 F7800
G1 X69.798 Y72.869
G1 Z.9
G1 E0 F2400
;TYPE:Skirt/Brim
;WIDTH:0.4
;HEIGHT:0.2
G1 F1800
G1 X71.371 Y71.855 E.05001
G1 X72.929 Y71.572 E.09232
G1 X127.071 Y71.572 E1.53911
G1 X128.9 Y71.967 E1.58911
G1 X130.202 Y72.869 E1.63144
G1 X133.131 Y75.798 E1.74213
G1 X134.145 Y77.371 E1.79214
G1 X134.428 Y78.929 E1.83445
G1 X134.428 Y121.071 E2.96058
G1 X134.35 Y121.9 E2.98283
G1 X131.111 Y138.87 E3.44449
G1 X130.58 Y140.679 E3.49487
G1 X129.808 Y142.413 E3.54559
G1 X129.125 Y143.578 E3.58168
G1 X128.149 Y144.897 E3.62553
G1 X127.033 Y146.089 E3.66916
G1 X125.795 Y147.141 E3.71257
G1 X124.465 Y148.031 E3.75533
G1 X123.007 Y148.785 E3.79919
G1 X121.481 Y149.362 E3.84279
G1 X119.656 Y149.802 E3.89296
G1 X118.117 Y149.986 E3.93438
G1 X94.423 Y151.037 E4.56816
G1 X92.803 Y150.914 E4.61157
G1 X91.207 Y150.607 E4.655
G1 X89.414 Y150.025 E4.70537
G1 X87.927 Y149.331 E4.74922
G1 X86.773 Y148.636 E4.78522
G1 X85.491 Y147.668 E4.82815
G1 X84.309 Y146.546 E4.8717
G1 X83.422 Y145.5 E4.90835
G1 X66.507 Y123.793 E5.64372
G1 X65.695 Y122.107 E5.69373
G1 X65.572 Y121.071 E5.72161
G1 X65.572 Y78.929 E6.84774
G1 X65.967 Y77.1 E6.89774
G1 X66.869 Y75.798 E6.94007
G1 X69.755 Y72.911 E7.04915
G1 X69.755 Y72.911 F7800
G1 X70.008 Y73.164
G1 F1800
G1 X70.05 Y73.121 E7.05076
G1 X71.567 Y72.163 E7.0987
G1 X72.929 Y71.929 E7.13563
G1 X127.071 Y71.929 E8.58242
G1 X128.821 Y72.324 E8.63036
G1 X129.95 Y73.121 E8.66729
G1 X132.879 Y76.05 E8.77798
G1 X133.837 Y77.567 E8.82592
G1 X134.071 Y78.929 E8.86285
G1 X134.071 Y121.071 E9.98898
G1 X133.999 Y121.834 E10.00946
G1 X130.763 Y138.789 E10.47071
G1 X130.244 Y140.559 E10.52
G1 X129.497 Y142.238 E10.56911
G1 X128.824 Y143.385 E10.60465
G1 X127.872 Y144.672 E10.64743
G1 X126.785 Y145.833 E10.68993
G1 X125.577 Y146.858 E10.73226
G1 X124.281 Y147.726 E10.77394
G1 X122.859 Y148.46 E10.8167
G1 X121.37 Y149.023 E10.85924
G1 X119.605 Y149.449 E10.90776
G1 X118.101 Y149.629 E10.94824
G1 X94.433 Y150.68 E11.58132
G1 X92.853 Y150.56 E11.62366
G1 X91.298 Y150.262 E11.66597
G1 X89.543 Y149.693 E11.71527
G1 X88.093 Y149.015 E11.75804
G1 X86.975 Y148.341 E11.79292
G1 X85.725 Y147.398 E11.83476
G1 X84.572 Y146.304 E11.87723
G1 X83.639 Y145.199 E11.91588
G1 X66.789 Y123.573 E12.64848
G1 X65.929 Y121.071 E12.71918
G1 X65.929 Y78.929 E13.84531
G1 X66.324 Y77.179 E13.89325
G1 X67.121 Y76.05 E13.93018
G1 X69.965 Y73.206 E14.03766
G1 X69.965 Y73.206 F7800
G1 X70.218 Y73.458
G1 F1800
G1 X70.303 Y73.374 E14.04085
G1 X71.76 Y72.475 E14.0866
G1 X72.929 Y72.286 E14.11824
G1 X127.071 Y72.286 E15.56503
G1 X128.737 Y72.68 E15.61078
G1 X129.697 Y73.374 E15.64243
G1 X132.626 Y76.303 E15.75312
G1 X133.525 Y77.76 E15.79887
G1 X133.714 Y78.929 E15.83051
G1 X133.714 Y121.071 E16.95664
G1 X133.648 Y121.767 E16.97532
G1 X130.415 Y138.708 E17.43619
G1 X129.907 Y140.44 E17.48442
G1 X129.187 Y142.062 E17.53184
G1 X128.524 Y143.192 E17.56685
G1 X127.596 Y144.446 E17.60854
G1 X126.536 Y145.577 E17.64996
G1 X125.359 Y146.575 E17.6912
G1 X124.096 Y147.42 E17.73181
G1 X122.71 Y148.136 E17.7735
G1 X121.26 Y148.683 E17.81491
G1 X119.554 Y149.096 E17.86181
G1 X118.085 Y149.273 E17.90135
G1 X94.443 Y150.323 E18.53374
G1 X92.904 Y150.207 E18.57498
G1 X91.389 Y149.917 E18.6162
G1 X89.672 Y149.36 E18.66444
G1 X88.259 Y148.699 E18.70613
G1 X87.176 Y148.046 E18.73992
G1 X85.958 Y147.128 E18.78068
G1 X84.835 Y146.062 E18.82206
G1 X83.921 Y144.979 E18.85993
G1 X67.07 Y123.354 E19.59253
G1 X66.286 Y121.071 E19.65703
G1 X66.286 Y78.929 E20.78316
G1 X66.68 Y77.263 E20.82891
G1 X67.374 Y76.303 E20.86056
G1 X70.175 Y73.501 E20.96643
G1 X70.175 Y73.501 F7800
G1 X70.428 Y73.753
G1 F1800
G1 X70.555 Y73.626 E20.97123
G1 X71.95 Y72.789 E21.0147
G1 X72.929 Y72.643 E21.04115
G1 X127.071 Y72.643 E22.48794
G1 X128.649 Y73.037 E22.5314
G1 X129.445 Y73.626 E22.55786
G1 X132.374 Y76.555 E22.66855
G1 X133.211 Y77.95 E22.71202
G1 X133.357 Y78.929 E22.73847
G1 X133.357 Y121.071 E23.8646
G1 X133.298 Y121.7 E23.88148
G1 X130.067 Y138.627 E24.34197
G1 X129.571 Y140.32 E24.38911
G1 X128.876 Y141.887 E24.43492
G1 X128.223 Y143 E24.4694
G1 X127.319 Y144.22 E24.50998
G1 X126.287 Y145.321 E24.55031
G1 X125.141 Y146.292 E24.59045
G1 X123.911 Y147.115 E24.63
G1 X122.561 Y147.811 E24.67059
G1 X121.15 Y148.343 E24.71089
G1 X119.504 Y148.742 E24.75615
G1 X118.068 Y148.916 E24.7948
G1 X94.453 Y149.966 E25.42647
G1 X92.955 Y149.854 E25.46661
G1 X91.48 Y149.571 E25.50674
G1 X89.801 Y149.027 E25.5539
G1 X88.426 Y148.383 E25.59447
G1 X87.378 Y147.751 E25.62717
G1 X86.192 Y146.858 E25.66684
G1 X85.098 Y145.821 E25.70712
G1 X84.202 Y144.76 E25.74423
G1 X67.352 Y123.134 E26.47683
G1 X66.643 Y121.071 E26.53512
G1 X66.643 Y78.929 E27.66125
G1 X67.037 Y77.351 E27.70471
G1 X67.626 Y76.555 E27.73117
G1 X70.385 Y73.796 E27.83543
;WIPE_START
G1 F6240
G1 X70.428 Y73.753 E27.81321
G1 X70.555 Y73.626 E27.74759
G1 X71.95 Y72.789 E27.15317
G1 X72.929 Y72.643 E26.7915
G1 X74.451 Y72.643 E26.23543
;WIPE_END
G92 E0
G1 Z1.4 F7800
G1 X72.265 Y77.039
G1 Z.9
G1 E1.6 F2400
G1 F1800
G1 X73.219 Y76.487 E1.62945
G1 X74.546 Y76.179 E1.66585
G1 X125.478 Y76.183 E3.02686
G1 X126.446 Y76.367 E3.05319
G1 X127.386 Y76.767 E3.08049
G1 X128.665 Y77.837 E3.12505
G1 X129.467 Y79.107 E3.16519
G1 X129.821 Y80.555 E3.20502
G1 X129.742 Y90.046 E3.45865
G1 X129.422 Y90.985 E3.48516
G1 X128.681 Y92.147 E3.52199
G1 X127.686 Y93.037 E3.55766
G1 X126.655 Y93.562 E3.58858
G1 X125.689 Y93.794 E3.61513
G1 X106.407 Y93.807 E4.13039
G1 X105.252 Y93.526 E4.16215
G1 X104.194 Y92.951 E4.19433
G1 X103.104 Y91.881 E4.23515
G1 X102.518 Y90.82 E4.26754
G1 X87.821 Y90.82 E4.66028
G1 X87.821 Y109.179 E5.15087
G1 X102.518 Y109.179 E5.54361
G1 X103.104 Y108.119 E5.57598
G1 X104.194 Y107.048 E5.61681
G1 X105.252 Y106.474 E5.64897
G1 X106.408 Y106.193 E5.68076
G1 X125.797 Y106.219 E6.19888
G1 X126.662 Y106.44 E6.22274
G1 X127.511 Y106.845 E6.24788
G1 X128.749 Y107.935 E6.29196
G1 X129.493 Y109.169 E6.33046
G1 X129.821 Y110.548 E6.36834
G1 X129.801 Y119.623 E6.61084
G1 X129.597 Y120.558 E6.63641
G1 X129.199 Y121.44 E6.66227
G1 X128.068 Y122.746 E6.70844
G1 X126.882 Y123.472 E6.7456
G1 X125.453 Y123.82 E6.7849
G1 X106.754 Y123.82 E7.28458
G1 X106.563 Y124.649 E7.30731
G1 X105.87 Y125.916 E7.3459
G1 X104.731 Y127.004 E7.38799
G1 X103.433 Y127.637 E7.42658
G1 X102.51 Y127.811 E7.45168
G1 X98.821 Y127.816 E7.55026
G1 X98.752 Y128.084 E7.55766
G1 X99.737 Y128.622 E7.58765
G1 X100.574 Y129.202 E7.61486
G1 X101.345 Y129.867 E7.64207
G1 X102.031 Y130.596 E7.66882
G1 X102.686 Y131.467 E7.69794
G1 X103.239 Y132.404 E7.72701
G1 X103.795 Y133.714 E7.76504
G1 X104.074 Y134.708 E7.79263
G1 X104.244 Y135.712 E7.81984
G1 X104.306 Y136.729 E7.84707
G1 X104.26 Y137.762 E7.8747
G1 X104.02 Y139.141 E7.9121
G1 X103.696 Y140.183 E7.94126
G1 X103.256 Y141.181 E7.97041
G1 X102.745 Y142.064 E7.99767
G1 X102.133 Y142.9 E8.02536
G1 X101.449 Y143.652 E8.05252
G1 X100.677 Y144.338 E8.08012
G1 X99.528 Y145.124 E8.11732
G1 X98.608 Y145.595 E8.14494
G1 X97.657 Y145.96 E8.17216
G1 X96.674 Y146.223 E8.19935
G1 X95.654 Y146.382 E8.22694
G1 X94.261 Y146.421 E8.26418
G1 X93.244 Y146.321 E8.29149
G1 X92.241 Y146.114 E8.31886
G1 X91.271 Y145.804 E8.34607
G1 X90.34 Y145.393 E8.37326
G1 X89.38 Y144.835 E8.40293
G1 X88.487 Y144.167 E8.43273
G1 X87.485 Y143.191 E8.47011
G1 X86.856 Y142.4 E8.49712
G1 X86.309 Y141.541 E8.52433
G1 X85.856 Y140.629 E8.55154
G1 X85.504 Y139.682 E8.57854
G1 X85.186 Y138.329 E8.61568
G1 X85.077 Y137.28 E8.64386
G1 X85.08 Y136.281 E8.67056
G1 X85.193 Y135.251 E8.69825
G1 X85.422 Y134.217 E8.72655
G1 X85.899 Y132.894 E8.76413
G1 X86.354 Y132 E8.79094
G1 X86.911 Y131.145 E8.81821
G1 X87.58 Y130.326 E8.84647
G1 X88.322 Y129.596 E8.87428
G1 X89.144 Y128.946 E8.90228
G1 X90.043 Y128.383 E8.93063
G1 X90.659 Y128.099 E8.94876
G1 X90.597 Y127.819 E8.95642
G1 X86.555 Y127.82 E9.06443
G1 X85.378 Y127.573 E9.09657
G1 X84.223 Y126.973 E9.13135
G1 X83.127 Y125.911 E9.17213
G1 X82.442 Y124.665 E9.21013
G1 X82.238 Y123.819 E9.23338
G1 X74.414 Y123.805 E9.44245
G1 X73.442 Y123.597 E9.46901
G1 X72.517 Y123.171 E9.49622
G1 X71.254 Y122.068 E9.54103
G1 X70.487 Y120.781 E9.58107
G1 X70.179 Y119.454 E9.61747
G1 X70.179 Y80.568 E10.65659
G1 X70.359 Y79.581 E10.6834
G1 X70.765 Y78.617 E10.71135
G1 X72.019 Y77.182 E10.76227
G1 X72.213 Y77.069 E10.76827
G1 X72.213 Y77.069 F7800
G1 X72.393 Y77.376
G1 F1800
G1 X73.327 Y76.828 E10.79721
G1 X74.567 Y76.536 E10.83125
G1 X125.461 Y76.54 E12.19125
G1 X126.359 Y76.714 E12.21569
G1 X127.22 Y77.085 E12.24074
G1 X128.414 Y78.092 E12.28248
G1 X129.128 Y79.221 E12.31818
G1 X129.464 Y80.575 E12.35546
G1 X129.394 Y89.96 E12.60625
G1 X129.108 Y90.813 E12.63029
G1 X128.424 Y91.898 E12.66456
G1 X127.466 Y92.755 E12.69891
G1 X126.514 Y93.234 E12.72739
G1 X125.668 Y93.437 E12.75064
G1 X106.429 Y93.45 E13.26475
G1 X105.361 Y93.185 E13.29415
G1 X104.426 Y92.679 E13.32256
G1 X103.374 Y91.645 E13.36198
G1 X102.731 Y90.463 E13.39794
G1 X87.463 Y90.463 E13.80593
G1 X87.463 Y109.536 E14.3156
G1 X102.731 Y109.536 E14.72359
G1 X103.374 Y108.355 E14.75952
G1 X104.426 Y107.321 E14.79894
G1 X105.361 Y106.815 E14.82735
G1 X106.429 Y106.55 E14.85675
G1 X125.773 Y106.576 E15.37366
G1 X126.554 Y106.781 E15.39524
G1 X127.333 Y107.156 E15.41834
G1 X128.492 Y108.184 E15.45974
G1 X129.153 Y109.279 E15.49392
G1 X129.464 Y110.569 E15.52938
G1 X129.448 Y119.567 E15.76983
G1 X129.264 Y120.429 E15.79338
G1 X128.885 Y121.269 E15.81801
G1 X127.818 Y122.49 E15.86134
G1 X126.721 Y123.152 E15.89558
G1 X125.432 Y123.463 E15.93101
G1 X106.466 Y123.463 E16.43782
G1 X106.237 Y124.501 E16.46622
G1 X105.57 Y125.72 E16.50335
G1 X104.549 Y126.695 E16.54108
G1 X103.299 Y127.305 E16.57825
G1 X102.463 Y127.457 E16.60096
G1 X96.707 Y127.459 E16.75477
G1 X96.669 Y127.773 E16.76322
G1 X97.413 Y127.957 E16.7837
G1 X98.673 Y128.448 E16.81984
G1 X99.542 Y128.921 E16.84628
G1 X100.349 Y129.479 E16.8725
G1 X101.091 Y130.118 E16.89867
G1 X101.764 Y130.834 E16.92493
G1 X102.395 Y131.674 E16.953
G1 X102.925 Y132.575 E16.98093
G1 X103.455 Y133.822 E17.01714
G1 X103.724 Y134.778 E17.04368
G1 X103.888 Y135.744 E17.06986
G1 X103.949 Y136.723 E17.09607
G1 X103.904 Y137.734 E17.12311
G1 X103.676 Y139.046 E17.15869
G1 X103.358 Y140.067 E17.18727
G1 X102.934 Y141.028 E17.21534
G1 X102.441 Y141.877 E17.24157
G1 X101.863 Y142.667 E17.26773
G1 X101.204 Y143.392 E17.29391
G1 X100.448 Y144.064 E17.32094
G1 X99.356 Y144.811 E17.35629
G1 X98.454 Y145.272 E17.38336
G1 X97.538 Y145.623 E17.40957
G1 X96.591 Y145.875 E17.43576
G1 X95.61 Y146.028 E17.46229
G1 X94.284 Y146.065 E17.49774
G1 X93.307 Y145.969 E17.52397
G1 X92.322 Y145.767 E17.55084
G1 X91.39 Y145.467 E17.577
G1 X90.493 Y145.07 E17.60321
G1 X89.585 Y144.542 E17.63128
G1 X88.728 Y143.903 E17.65985
G1 X87.758 Y142.96 E17.696
G1 X87.142 Y142.185 E17.72245
G1 X86.616 Y141.358 E17.74864
G1 X86.18 Y140.479 E17.77486
G1 X85.842 Y139.569 E17.8008
G1 X85.537 Y138.259 E17.83674
G1 X85.433 Y137.253 E17.86377
G1 X85.437 Y136.292 E17.88945
G1 X85.544 Y135.318 E17.91563
G1 X85.761 Y134.327 E17.94274
G1 X86.222 Y133.046 E17.97912
G1 X86.668 Y132.171 E18.00536
G1 X87.204 Y131.348 E18.03161
G1 X87.85 Y130.559 E18.05886
G1 X88.551 Y129.87 E18.08513
G1 X89.342 Y129.244 E18.11209
G1 X90.223 Y128.692 E18.13987
G1 X91.447 Y128.131 E18.17585
G1 X92.659 Y127.766 E18.20967
G1 X92.614 Y127.461 E18.21791
G1 X86.573 Y127.463 E18.37934
G1 X85.519 Y127.244 E18.40811
G1 X84.452 Y126.698 E18.44014
G1 X83.395 Y125.674 E18.47947
G1 X82.768 Y124.517 E18.51464
G1 X82.522 Y123.462 E18.54359
G1 X74.433 Y123.448 E18.75975
G1 X73.571 Y123.264 E18.7833
G1 X72.731 Y122.885 E18.80793
G1 X71.51 Y121.818 E18.85126
G1 X70.828 Y120.672 E18.8869
G1 X70.537 Y119.433 E18.92091
G1 X70.537 Y80.585 E19.95901
G1 X70.706 Y79.666 E19.98398
G1 X71.083 Y78.784 E20.00961
G1 X72.225 Y77.475 E20.05603
G1 X72.341 Y77.407 E20.05962
;WIPE_START
G1 F6240
G1 X72.393 Y77.376 E20.0375
G1 X73.327 Y76.828 E19.64183
G1 X74.567 Y76.536 E19.17636
G1 X76.529 Y76.536 E18.45962
;WIPE_END
G92 E0
G1 Z1.4 F7800
G1 X91.586 Y128.46
G1 Z.9
G1 E1.6 F2400
G1 F1800
G1 X93.398 Y127.998 E1.64997
G1 X94.346 Y127.911 E1.67541
G1 X95.295 Y127.925 E1.70077
G1 X96.3 Y128.051 E1.72784
G1 X97.295 Y128.294 E1.75521
G1 X98.513 Y128.767 E1.79013
G1 X100.123 Y129.756 E1.84062
G1 X101.485 Y131.056 E1.89093
G1 X102.092 Y131.863 E1.91791
G1 X102.612 Y132.746 E1.94529
G1 X103.121 Y133.95 E1.98022
G1 X103.534 Y135.794 E2.03072
G1 X103.592 Y136.735 E2.05591
G1 X103.55 Y137.684 E2.08129
G1 X103.326 Y138.973 E2.11625
G1 X103.02 Y139.951 E2.14363
G1 X102.611 Y140.874 E2.17061
G1 X101.58 Y142.449 E2.22091
G1 X100.237 Y143.776 E2.27136
G1 X99.163 Y144.51 E2.30612
G1 X98.317 Y144.943 E2.33152
G1 X97.437 Y145.281 E2.35671
G1 X95.589 Y145.671 E2.40718
G1 X94.286 Y145.708 E2.44201
G1 X92.422 Y145.424 E2.49239
G1 X90.664 Y144.756 E2.54264
G1 X89.79 Y144.25 E2.56963
G1 X88.968 Y143.639 E2.597
G1 X88.03 Y142.728 E2.63194
G1 X86.931 Y141.19 E2.68245
G1 X86.512 Y140.346 E2.70763
G1 X86.181 Y139.455 E2.73303
G1 X85.887 Y138.19 E2.76773
G1 X85.794 Y136.303 E2.81822
G1 X85.898 Y135.366 E2.84341
G1 X86.102 Y134.436 E2.86885
G1 X86.545 Y133.198 E2.90399
G1 X86.973 Y132.358 E2.92918
G1 X87.498 Y131.551 E2.95491
G1 X88.107 Y130.807 E2.9806
G1 X88.78 Y130.144 E3.00584
G1 X89.556 Y129.53 E3.03228
G1 X90.402 Y129.001 E3.05894
G1 X91.531 Y128.485 E3.09211
G1 X91.531 Y128.485 F7800
G1 X91.679 Y128.809
G1 F1800
G1 X91.703 Y128.798 E3.09282
G1 X92.57 Y128.527 E3.11709
G1 X94.369 Y128.267 E3.16566
G1 X95.279 Y128.281 E3.18998
G1 X96.245 Y128.404 E3.216
G1 X97.199 Y128.638 E3.24225
G1 X98.353 Y129.087 E3.27534
G1 X99.913 Y130.045 E3.32426
G1 X101.218 Y131.294 E3.37253
G1 X101.801 Y132.07 E3.39847
G1 X102.298 Y132.917 E3.42471
G1 X102.781 Y134.058 E3.45782
G1 X103.178 Y135.826 E3.50624
G1 X103.194 Y137.657 E3.55517
G1 X102.982 Y138.878 E3.58829
G1 X102.689 Y139.816 E3.61455
G1 X102.297 Y140.704 E3.64049
G1 X101.298 Y142.23 E3.68923
G1 X100.008 Y143.501 E3.73762
G1 X98.99 Y144.197 E3.77057
G1 X97.318 Y144.944 E3.81951
G1 X95.545 Y145.316 E3.86792
G1 X94.309 Y145.351 E3.90096
G1 X92.521 Y145.081 E3.94928
G1 X90.817 Y144.434 E3.99799
G1 X89.978 Y143.946 E4.02393
G1 X89.19 Y143.359 E4.05019
G1 X88.302 Y142.496 E4.08328
G1 X87.247 Y141.023 E4.1317
G1 X86.52 Y139.342 E4.18064
G1 X86.241 Y138.142 E4.21356
G1 X86.148 Y137.237 E4.23787
G1 X86.252 Y135.415 E4.28664
G1 X86.448 Y134.524 E4.31102
G1 X86.869 Y133.349 E4.34437
G1 X87.792 Y131.755 E4.39359
G1 X88.377 Y131.041 E4.41826
G1 X89.024 Y130.405 E4.4425
G1 X89.769 Y129.816 E4.46788
G1 X90.581 Y129.311 E4.49343
G1 X91.624 Y128.834 E4.52408
G1 X91.624 Y128.834 F7800
G1 X91.772 Y129.157
G1 F1800
G1 X91.82 Y129.135 E4.52549
G1 X93.519 Y128.702 E4.57234
G1 X95.263 Y128.638 E4.61897
G1 X96.189 Y128.757 E4.64392
G1 X97.102 Y128.982 E4.66905
G1 X98.193 Y129.406 E4.70033
G1 X99.687 Y130.322 E4.74716
G1 X100.95 Y131.531 E4.79388
G1 X101.509 Y132.276 E4.81877
G1 X101.984 Y133.087 E4.84389
G1 X102.44 Y134.165 E4.87517
G1 X102.825 Y135.876 E4.92203
G1 X102.838 Y137.629 E4.96888
G1 X102.637 Y138.783 E5.00018
G1 X102.358 Y139.682 E5.02533
