; generated by SuperSlicer 2.4 on 2024-11-26 at 13:39:38 UTC


;
;
; 

; external perimeters extrusion width = 0.45mm
; perimeters extrusion width = 0.45mm
; infill extrusion width = 0.45mm
; solid infill extrusion width = 0.45mm
; top infill extrusion width = 0.40mm
; support material extrusion width = 0.35mm
; first layer extrusion width = 0.42mm

; external perimeters extrusion width = 0.45mm
; perimeters extrusion width = 0.45mm
; infill extrusion width = 0.45mm
; solid infill extrusion width = 0.45mm
; top infill extrusion width = 0.40mm
; support material extrusion width = 0.35mm
; first layer extrusion width = 0.42mm

; external perimeters extrusion width = 0.45mm
; perimeters extrusion width = 0.45mm
; infill extrusion width = 0.45mm
; solid infill extrusion width = 0.45mm
; top infill extrusion width = 0.40mm
; support material extrusion width = 0.35mm
; first layer extrusion width = 0.42mm

; object:{"name":"mover_grid","id":"mover_grid.stl id:0 copy 0","object_center":[85.969988,102.139902,0.000000],"boundingbox_center":[85.969988,102.139902,3.000000],"boundingbox_size":[60.000000,197.000000,6.000000]}
; object:{"name":"mover_adapter","id":"mover_adapter.stl id:1 copy 0","object_center":[130.134471,106.360631,0.000000],"boundingbox_center":[130.134471,106.360631,22.000000],"boundingbox_size":[8.000000,96.000000,44.000000]}
; object:{"name":"mover_adapter","id":"mover_adapter.stl id:2 copy 0","object_center":[142.579064,106.040615,0.000000],"boundingbox_center":[142.579064,106.040615,22.000000],"boundingbox_size":[8.000000,96.000000,44.000000]}
; Total objects to print: 3
M486 T3
; plater:{"center":[101.274526,102.139902,0.000000],"boundingbox_center":[101.274526,102.139902,22.000000],"boundingbox_size":[90.609075,197.000000,44.000000]}

M73 P0 R203
G10 P0 R210 ; sets the standby temperature
;TYPE:Custom
G28 W ; home all without mesh bed level
G90 ; use absolute coordinates
M83 ; extruder relative mode
G0 X60 Y-3 Z80 ; move extruder above bed, keep extruder in front for cleaning and checking
M104 S160 T0; pre-heat extruder to 160C
M140 S60 ; set bed temp
M190 S60 ; wait for bed temp
G29 ; mesh bed leveling using defined mesh grid
G0 X0 Y-3 Z0.6 ; go outside print area
M104 S215 ; wait for extruder temp
M109 S215 ; wait for extruder temp
M98 P"0:/sys/primeLine.g"; execute primeline macro
G92 E0.0M572 D0 S0.07 ; set pressure advance
M107
G21 ; set units to millimeters
G90 ; use absolute coordinates
M83 ; use relative distances for extrusion
;_TOOLCHANGE 0
M107
;LAYER_CHANGE
;Z:0.2
;HEIGHT:0.2
;BEFORE_LAYER_CHANGE
G92 E0.0
;0.2


G1 E-0.4 F1500
G1 Z0.4 F10800
;AFTER_LAYER_CHANGE
;0.2
M73 P0 R202
G1 Z0.6
M204 P1000 T1000
G1 X53.731 Y3.64
G1 Z0.2
G1 E0.4 F1500
;TYPE:Skirt
;WIDTH:0.52
G1 F1200
G1 X53.731 Y200.64 E7.42412
G1 X53.883 Y201.451 E0.03109
G1 X54.706 Y202.487 E0.04987
G1 X55.97 Y202.878 E0.04987
G1 X115.97 Y202.878 E2.26115
G1 X116.876 Y202.687 E0.03491
G1 X117.874 Y201.818 E0.04987
G1 X147.719 Y153.569 E2.13803
G1 X148.378 Y152.293 E0.05414
G1 X148.594 Y151.627 E0.02637
G1 X148.817 Y149.992 E0.0622
G1 X146.817 Y57.992 E3.46792
G1 X146.56 Y56.999 E0.03866
G1 X117.951 Y2.598 E2.31635
G1 X117.234 Y1.792 E0.04065
G1 X115.97 Y1.401 E0.04987
G1 X55.97 Y1.401 E2.26115
G1 X55.159 Y1.553 E0.03109
G1 X54.123 Y2.376 E0.04987
G1 X53.749 Y3.583 E0.0476
;WIPE_START
G1 F8640
G1 X53.749 Y5.887 E-0.38
;WIPE_END
G1 E-0.02 F1500
G1 Z0.6 F10800
; printing object mover_grid.stl id:0 copy 0
M486 S0
; acceleration to travel
G1 X80.726 Y168.599
; decel to extrusion
G1 X85.97 Y200.23
; end travel
M204 P800 T1500
G1 Z0.2
G1 E0.4 F1500
;TYPE:External perimeter
;WIDTH:0.42
G1 F1200
G1 X56.38 Y200.23 E0.88139
G1 X56.38 Y4.05 E5.84353
G1 X115.56 Y4.05 E1.76277
G1 X115.56 Y200.23 E5.84353
G1 X86.03 Y200.23 E0.8796
;WIPE_START
M204 P1000 T1500
G1 X85.77 Y199.883 F10800
;WIPE_END
M204 P800 T800
G1 X85.77 Y199.853
;TYPE:Internal perimeter
M73 P0 R201
G1 F1200
G1 X56.757 Y199.853 E0.8642
G1 X56.757 Y4.427 E5.82107
G1 X115.183 Y4.427 E1.74031
G1 X115.183 Y199.853 E5.82107
G1 X85.83 Y199.853 E0.87432
G1 X85.77 Y199.476 F10800
G1 F1200
G1 X57.134 Y199.476 E0.85296
G1 X57.134 Y196.807 E0.07949
G1 X114.806 Y196.807 E1.71784
G1 X114.806 Y199.476 E0.07949
G1 X85.83 Y199.476 E0.86309
;WIPE_START
G1 F8640
M204 P1000 T800
G1 X83.526 Y199.476 E-0.38
;WIPE_END
G1 E-0.02 F1500
G1 Z0.6 F10800
; acceleration to travel
G1 X85.572 Y196.61
; decel to extrusion
G1 X85.97 Y196.053
; end travel
M204 P800 T1500
G1 Z0.2
G1 E0.4 F1500
;TYPE:External perimeter
G1 F1200
G1 X114.383 Y196.053 E0.84633
G1 X114.383 Y190.228 E0.17351
G1 X57.557 Y190.228 E1.69265
G1 X57.557 Y196.053 E0.17351
G1 X85.91 Y196.053 E0.84454
;WIPE_START
M204 P1000 T1500
G1 X86.17 Y196.399 F10800
;WIPE_END
M204 P800 T800
G1 X86.17 Y196.43
;TYPE:Internal perimeter
G1 F1200
G1 X114.76 Y196.43 E0.8516
G1 X114.76 Y189.851 E0.19597
G1 X57.18 Y189.851 E1.71512
G1 X57.18 Y196.43 E0.19597
G1 X86.11 Y196.43 E0.86173
;WIPE_START
G1 F8640
M204 P1000 T800
G1 X88.414 Y196.43 E-0.38
;WIPE_END
G1 E-0.02 F1500
G1 Z0.6 F10800
; acceleration to travel
G1 X86.368 Y190.254
; decel to extrusion
G1 X85.97 Y189.053
; end travel
M204 P800 T1500
G1 Z0.2
G1 E0.4 F1500
;TYPE:External perimeter
G1 F1200
G1 X114.383 Y189.053 E0.84633
G1 X114.383 Y183.228 E0.17351
G1 X57.557 Y183.228 E1.69265
G1 X57.557 Y189.053 E0.17351
G1 X85.91 Y189.053 E0.84454
;WIPE_START
M204 P1000 T1500
M73 P1 R201
G1 X86.17 Y189.399 F10800
;WIPE_END
M204 P800 T800
G1 X86.17 Y189.43
;TYPE:Internal perimeter
G1 F1200
G1 X114.76 Y189.43 E0.8516
G1 X114.76 Y182.851 E0.19597
G1 X57.18 Y182.851 E1.71512
G1 X57.18 Y189.43 E0.19597
G1 X86.11 Y189.43 E0.86173
;WIPE_START
G1 F8640
M204 P1000 T800
G1 X88.414 Y189.43 E-0.38
;WIPE_END
G1 E-0.02 F1500
G1 Z0.6 F10800
; acceleration to travel
G1 X86.368 Y183.254
; decel to extrusion
G1 X85.97 Y182.053
; end travel
M204 P800 T1500
G1 Z0.2
G1 E0.4 F1500
;TYPE:External perimeter
G1 F1200
G1 X114.383 Y182.053 E0.84633
G1 X114.383 Y176.228 E0.17351
G1 X57.557 Y176.228 E1.69265
G1 X57.557 Y182.053 E0.17351
M73 P1 R200
G1 X85.91 Y182.053 E0.84454
;WIPE_START
M204 P1000 T1500
G1 X86.17 Y182.399 F10800
;WIPE_END
M204 P800 T800
G1 X86.17 Y182.43
;TYPE:Internal perimeter
G1 F1200
G1 X114.76 Y182.43 E0.8516
G1 X114.76 Y175.851 E0.19597
G1 X57.18 Y175.851 E1.71512
G1 X57.18 Y182.43 E0.19597
G1 X86.11 Y182.43 E0.86173
;WIPE_START
G1 F8640
M204 P1000 T800
G1 X88.414 Y182.43 E-0.38
;WIPE_END
G1 E-0.02 F1500
G1 Z0.6 F10800
; acceleration to travel
G1 X86.368 Y176.254
; decel to extrusion
G1 X85.97 Y175.053
; end travel
M204 P800 T1500
G1 Z0.2
G1 E0.4 F1500
;TYPE:External perimeter
G1 F1200
G1 X114.383 Y175.053 E0.84633
G1 X114.383 Y169.228 E0.17351
G1 X57.557 Y169.228 E1.69265
G1 X57.557 Y175.053 E0.17351
G1 X85.91 Y175.053 E0.84454
;WIPE_START
M204 P1000 T1500
G1 X86.17 Y175.399 F10800
;WIPE_END
M204 P800 T800
G1 X86.17 Y175.43
;TYPE:Internal perimeter
G1 F1200
G1 X114.76 Y175.43 E0.8516
G1 X114.76 Y168.851 E0.19597
G1 X57.18 Y168.851 E1.71512
G1 X57.18 Y175.43 E0.19597
G1 X86.11 Y175.43 E0.86173
;WIPE_START
G1 F8640
M204 P1000 T800
G1 X88.414 Y175.43 E-0.38
;WIPE_END
G1 E-0.02 F1500
G1 Z0.6 F10800
; acceleration to travel
G1 X86.368 Y169.254
; decel to extrusion
G1 X85.97 Y168.053
; end travel
M204 P800 T1500
G1 Z0.2
G1 E0.4 F1500
;TYPE:External perimeter
G1 F1200
G1 X114.383 Y168.053 E0.84633
G1 X114.383 Y162.228 E0.17351
G1 X57.557 Y162.228 E1.69265
G1 X57.557 Y168.053 E0.17351
G1 X85.91 Y168.053 E0.84454
;WIPE_START
M204 P1000 T1500
G1 X86.17 Y168.399 F10800
;WIPE_END
M204 P800 T800
G1 X86.17 Y168.43
;TYPE:Internal perimeter
G1 F1200
G1 X114.76 Y168.43 E0.8516
G1 X114.76 Y161.851 E0.19597
G1 X57.18 Y161.851 E1.71512
G1 X57.18 Y168.43 E0.19597
G1 X86.11 Y168.43 E0.86173
;WIPE_START
G1 F8640
M204 P1000 T800
G1 X88.414 Y168.43 E-0.38
;WIPE_END
G1 E-0.02 F1500
G1 Z0.6 F10800
; acceleration to travel
G1 X86.368 Y162.254
; decel to extrusion
G1 X85.97 Y161.053
; end travel
M204 P800 T1500
G1 Z0.2
G1 E0.4 F1500
;TYPE:External perimeter
G1 F1200
G1 X114.383 Y161.053 E0.84633
G1 X114.383 Y155.228 E0.17351
G1 X57.557 Y155.228 E1.69265
G1 X57.557 Y161.053 E0.17351
G1 X85.91 Y161.053 E0.84454
;WIPE_START
M204 P1000 T1500
G1 X86.17 Y161.399 F10800
;WIPE_END
M204 P800 T800
G1 X86.17 Y161.43
;TYPE:Internal perimeter
G1 F1200
G1 X114.76 Y161.43 E0.8516
G1 X114.76 Y154.851 E0.19597
G1 X57.18 Y154.851 E1.71512
G1 X57.18 Y161.43 E0.19597
G1 X86.11 Y161.43 E0.86173
;WIPE_START
G1 F8640
M204 P1000 T800
G1 X88.414 Y161.43 E-0.38
;WIPE_END
G1 E-0.02 F1500
G1 Z0.6 F10800
; acceleration to travel
G1 X86.368 Y155.254
; decel to extrusion
G1 X85.97 Y154.053
; end travel
M204 P800 T1500
G1 Z0.2
G1 E0.4 F1500
;TYPE:External perimeter
G1 F1200
G1 X114.383 Y154.053 E0.84633
G1 X114.383 Y148.228 E0.17351
G1 X57.557 Y148.228 E1.69265
G1 X57.557 Y154.053 E0.17351
G1 X85.91 Y154.053 E0.84454
;WIPE_START
M204 P1000 T1500
G1 X86.17 Y154.399 F10800
;WIPE_END
M204 P800 T800
G1 X86.17 Y154.43
;TYPE:Internal perimeter
G1 F1200
G1 X114.76 Y154.43 E0.8516
G1 X114.76 Y147.851 E0.19597
G1 X57.18 Y147.851 E1.71512
G1 X57.18 Y154.43 E0.19597
M73 P1 R199
G1 X86.11 Y154.43 E0.86173
;WIPE_START
G1 F8640
M204 P1000 T800
G1 X88.414 Y154.43 E-0.38
;WIPE_END
G1 E-0.02 F1500
G1 Z0.6 F10800
; acceleration to travel
G1 X86.368 Y148.254
; decel to extrusion
G1 X85.97 Y147.053
; end travel
M204 P800 T1500
G1 Z0.2
G1 E0.4 F1500
;TYPE:External perimeter
G1 F1200
G1 X114.383 Y147.053 E0.84633
G1 X114.383 Y141.228 E0.17351
G1 X57.557 Y141.228 E1.69265
G1 X57.557 Y147.053 E0.17351
G1 X85.91 Y147.053 E0.84454
;WIPE_START
M204 P1000 T1500
G1 X86.17 Y147.399 F10800
;WIPE_END
M204 P800 T800
G1 X86.17 Y147.43
;TYPE:Internal perimeter
G1 F1200
G1 X114.76 Y147.43 E0.8516
G1 X114.76 Y140.851 E0.19597
G1 X57.18 Y140.851 E1.71512
G1 X57.18 Y147.43 E0.19597
G1 X86.11 Y147.43 E0.86173
;WIPE_START
G1 F8640
M204 P1000 T800
G1 X88.414 Y147.43 E-0.38
;WIPE_END
G1 E-0.02 F1500
G1 Z0.6 F10800
; acceleration to travel
G1 X86.368 Y141.254
; decel to extrusion
G1 X85.97 Y140.053
; end travel
M204 P800 T1500
G1 Z0.2
G1 E0.4 F1500
;TYPE:External perimeter
G1 F1200
G1 X114.383 Y140.053 E0.84633
G1 X114.383 Y134.228 E0.17351
G1 X57.557 Y134.228 E1.69265
G1 X57.557 Y140.053 E0.17351
G1 X85.91 Y140.053 E0.84454
;WIPE_START
M204 P1000 T1500
G1 X86.17 Y140.399 F10800
;WIPE_END
M204 P800 T800
G1 X86.17 Y140.43
;TYPE:Internal perimeter
G1 F1200
G1 X114.76 Y140.43 E0.8516
G1 X114.76 Y133.851 E0.19597
G1 X57.18 Y133.851 E1.71512
G1 X57.18 Y140.43 E0.19597
G1 X86.11 Y140.43 E0.86173
;WIPE_START
G1 F8640
M204 P1000 T800
G1 X88.414 Y140.43 E-0.38
;WIPE_END
G1 E-0.02 F1500
G1 Z0.6 F10800
; acceleration to travel
G1 X86.368 Y134.254
; decel to extrusion
G1 X85.97 Y133.053
; end travel
M204 P800 T1500
G1 Z0.2
G1 E0.4 F1500
;TYPE:External perimeter
G1 F1200
G1 X114.383 Y133.053 E0.84633
G1 X114.383 Y127.228 E0.17351
G1 X57.557 Y127.228 E1.69265
G1 X57.557 Y133.053 E0.17351
G1 X85.91 Y133.053 E0.84454
;WIPE_START
M204 P1000 T1500
G1 X86.17 Y133.399 F10800
;WIPE_END
M204 P800 T800
G1 X86.17 Y133.43
;TYPE:Internal perimeter
G1 F1200
G1 X114.76 Y133.43 E0.8516
G1 X114.76 Y126.851 E0.19597
G1 X57.18 Y126.851 E1.71512
G1 X57.18 Y133.43 E0.19597
G1 X86.11 Y133.43 E0.86173
;WIPE_START
G1 F8640
M204 P1000 T800
G1 X88.414 Y133.43 E-0.38
;WIPE_END
G1 E-0.02 F1500
G1 Z0.6 F10800
; acceleration to travel
G1 X86.368 Y127.254
; decel to extrusion
G1 X85.97 Y126.053
; end travel
M204 P800 T1500
G1 Z0.2
G1 E0.4 F1500
;TYPE:External perimeter
G1 F1200
G1 X114.383 Y126.053 E0.84633
G1 X114.383 Y120.228 E0.17351
G1 X57.557 Y120.228 E1.69265
G1 X57.557 Y126.053 E0.17351
G1 X85.91 Y126.053 E0.84454
;WIPE_START
M204 P1000 T1500
G1 X86.17 Y126.399 F10800
;WIPE_END
M204 P800 T800
M73 P2 R199
G1 X86.17 Y126.43
;TYPE:Internal perimeter
G1 F1200
G1 X114.76 Y126.43 E0.8516
G1 X114.76 Y119.851 E0.19597
G1 X57.18 Y119.851 E1.71512
G1 X57.18 Y126.43 E0.19597
G1 X86.11 Y126.43 E0.86173
;WIPE_START
G1 F8640
M204 P1000 T800
G1 X88.414 Y126.43 E-0.38
;WIPE_END
G1 E-0.02 F1500
G1 Z0.6 F10800
; acceleration to travel
G1 X86.368 Y120.254
; decel to extrusion
G1 X85.97 Y119.053
; end travel
M204 P800 T1500
G1 Z0.2
G1 E0.4 F1500
;TYPE:External perimeter
G1 F1200
G1 X114.383 Y119.053 E0.84633
G1 X114.383 Y113.228 E0.17351
G1 X57.557 Y113.228 E1.69265
G1 X57.557 Y119.053 E0.17351
M73 P2 R198
G1 X85.91 Y119.053 E0.84454
;WIPE_START
M204 P1000 T1500
G1 X86.17 Y119.399 F10800
;WIPE_END
M204 P800 T800
G1 X86.17 Y119.43
;TYPE:Internal perimeter
G1 F1200
G1 X114.76 Y119.43 E0.8516
G1 X114.76 Y112.851 E0.19597
G1 X57.18 Y112.851 E1.71512
G1 X57.18 Y119.43 E0.19597
G1 X86.11 Y119.43 E0.86173
;WIPE_START
G1 F8640
M204 P1000 T800
G1 X88.414 Y119.43 E-0.38
;WIPE_END
G1 E-0.02 F1500
G1 Z0.6 F10800
; acceleration to travel
G1 X86.368 Y113.254
; decel to extrusion
G1 X85.97 Y112.053
; end travel
M204 P800 T1500
G1 Z0.2
G1 E0.4 F1500
;TYPE:External perimeter
G1 F1200
G1 X114.383 Y112.053 E0.84633
G1 X114.383 Y106.228 E0.17351
G1 X57.557 Y106.228 E1.69265
G1 X57.557 Y112.053 E0.17351
G1 X85.91 Y112.053 E0.84454
;WIPE_START
M204 P1000 T1500
G1 X86.17 Y112.399 F10800
;WIPE_END
M204 P800 T800
G1 X86.17 Y112.43
;TYPE:Internal perimeter
G1 F1200
G1 X114.76 Y112.43 E0.8516
G1 X114.76 Y105.851 E0.19597
G1 X57.18 Y105.851 E1.71512
G1 X57.18 Y112.43 E0.19597
G1 X86.11 Y112.43 E0.86173
;WIPE_START
G1 F8640
M204 P1000 T800
G1 X88.414 Y112.43 E-0.38
;WIPE_END
G1 E-0.02 F1500
G1 Z0.6 F10800
; acceleration to travel
G1 X86.535 Y24.556
; decel to extrusion
G1 X86.17 Y7.473
; end travel
M204 P800 T1500
G1 Z0.2
G1 E0.4 F1500
G1 F1200
G1 X57.134 Y7.473 E0.86488
G1 X57.134 Y4.804 E0.07949
G1 X114.806 Y4.804 E1.71784
G1 X114.806 Y7.473 E0.07949
G1 X86.23 Y7.473 E0.85118
;WIPE_START
G1 F8640
M204 P1000 T1500
G1 X83.926 Y7.473 E-0.38
;WIPE_END
G1 E-0.02 F1500
G1 Z0.6 F10800
; acceleration to travel
G1 X85.637 Y12.981
; decel to extrusion
G1 X85.97 Y14.052
; end travel
M204 P800 T1500
G1 Z0.2
G1 E0.4 F1500
;TYPE:External perimeter
G1 F1200
G1 X114.383 Y14.052 E0.84633
G1 X114.383 Y8.227 E0.17351
G1 X57.557 Y8.227 E1.69265
G1 X57.557 Y14.052 E0.17351
G1 X85.91 Y14.052 E0.84454
;WIPE_START
M204 P1000 T1500
G1 X86.17 Y14.398 F10800
;WIPE_END
M204 P800 T800
G1 X86.17 Y14.429
;TYPE:Internal perimeter
G1 F1200
G1 X114.76 Y14.429 E0.8516
G1 X114.76 Y7.85 E0.19597
G1 X57.18 Y7.85 E1.71512
G1 X57.18 Y14.429 E0.19597
G1 X86.11 Y14.429 E0.86173
;WIPE_START
G1 F8640
M204 P1000 T800
G1 X88.414 Y14.429 E-0.38
;WIPE_END
G1 E-0.02 F1500
G1 Z0.6 F10800
; acceleration to travel
G1 X86.368 Y19.974
; decel to extrusion
G1 X85.97 Y21.052
; end travel
M204 P800 T1500
G1 Z0.2
G1 E0.4 F1500
;TYPE:External perimeter
G1 F1200
G1 X114.383 Y21.052 E0.84633
G1 X114.383 Y15.227 E0.17351
G1 X57.557 Y15.227 E1.69265
G1 X57.557 Y21.052 E0.17351
G1 X85.91 Y21.052 E0.84454
;WIPE_START
M204 P1000 T1500
G1 X86.17 Y21.398 F10800
;WIPE_END
M204 P800 T800
G1 X86.17 Y21.429
;TYPE:Internal perimeter
G1 F1200
G1 X114.76 Y21.429 E0.8516
G1 X114.76 Y14.85 E0.19597
G1 X57.18 Y14.85 E1.71512
G1 X57.18 Y21.429 E0.19597
G1 X86.11 Y21.429 E0.86173
;WIPE_START
G1 F8640
M204 P1000 T800
G1 X88.414 Y21.429 E-0.38
;WIPE_END
G1 E-0.02 F1500
G1 Z0.6 F10800
; acceleration to travel
G1 X86.368 Y26.974
; decel to extrusion
G1 X85.97 Y28.052
; end travel
M204 P800 T1500
G1 Z0.2
G1 E0.4 F1500
;TYPE:External perimeter
G1 F1200
G1 X114.383 Y28.052 E0.84633
G1 X114.383 Y22.227 E0.17351
G1 X57.557 Y22.227 E1.69265
G1 X57.557 Y28.052 E0.17351
M73 P2 R197
G1 X85.91 Y28.052 E0.84454
;WIPE_START
M204 P1000 T1500
G1 X86.17 Y28.398 F10800
;WIPE_END
M204 P800 T800
G1 X86.17 Y28.429
;TYPE:Internal perimeter
G1 F1200
G1 X114.76 Y28.429 E0.8516
G1 X114.76 Y21.85 E0.19597
G1 X57.18 Y21.85 E1.71512
G1 X57.18 Y28.429 E0.19597
G1 X86.11 Y28.429 E0.86173
;WIPE_START
G1 F8640
M204 P1000 T800
G1 X88.414 Y28.429 E-0.38
;WIPE_END
G1 E-0.02 F1500
G1 Z0.6 F10800
; acceleration to travel
G1 X86.368 Y33.974
; decel to extrusion
G1 X85.97 Y35.052
; end travel
M204 P800 T1500
G1 Z0.2
G1 E0.4 F1500
;TYPE:External perimeter
G1 F1200
G1 X114.383 Y35.052 E0.84633
